!!!!SEGMENT: pl-wtm--r-1740-m--001-002_moniuszko-stanislaw--sonety-krymskie-cisza-morska.krn
!!!cenid: 18xx:2909
!!!COM: Moniuszko, Stanisław
!!!COM-rismID: pe30008351
!!!CDT: 1819/05/05-1872/06/04
!!!CNT: Polish
!!!GTL: Sonety krymskie
!!!OTL: Cisza morska
!!!OMV: 002
!!!PDT:
!!!AGN: Secular; Sonnet
!!!SMS-siglum: PL-Wtm
!!!SMS-shelfmark: R 1740/M
!!!SMS-shelfwork: 001-002 G
!!!SMS-variant:
!!!SMS-altvar:
!!!NIFC-rismSourceID: 1001096344
!!!NIFC-rismChildID: 1001096344
!!!NIFC-islandoraID:
!!!URL-pdf-islandora:
!!!URL-scan:
!!!IIIF:
!!!ONB-nifc: UWAGA: w zbiorze 2 aranżacje Sonetów. Pliki nr 001-001-010 w obsadzie vl (2), vla, vlc,
!!!OMD: Andante, molto tranquillo.
!!!AIN: 1 cbass 1 cello 1 empty 2 forte 1 physh 1 viola 2 violn
!!!key:
**kern	**dynam	**kern	**dynam	**kern	**dynam	**kern	**dynam	**kern	**dynam	**kern	**kern	**fing	**dynam	**kern	**kern	**dynam	**kern	**kern	**dynam
*	*	*	*	*	*	*	*	*	*	*group1	*group1	*	*group1	*group1	*group1	*group1	*	*	*
*part9	*part9	*part8	*part8	*part7	*part7	*part6	*part6	*part5	*part5	*part4	*part4	*	*part4	*part3	*part3	*part3	*part2	*part1	*part1
*staff11	*	*staff10	*	*staff9	*	*staff8	*	*staff7	*	*staff6	*staff5	*	*	*staff4	*staff3	*	*staff2	*staff1	*
*Icbass	*	*Icello	*	*Iviola	*	*Ivioln	*	*Ivioln	*	*Iforte	*Iforte	*	*	*Iforte	*Iforte	*	*Iempty	*Iphysh	*
*I"Contrabbasso	*	*I"Vcello CB.	*	*I"vla	*	*I"v. 2.	*	*I"V. 1.	*	*I"Fortepiano	*I"Fortepiano	*	*	*I"Fortepiano	*I"Fortepiano	*	*	*I"Physharmonica.	*
*clefF4	*	*clefF4	*	*clefC3	*	*clefG2	*	*clefG2	*	*clefF4	*clefF4	*	*	*clefG2	*clefG2	*	*clefF4	*clefG2	*
*Trd0c0	*	*	*	*	*	*	*	*	*	*	*	*	*	*	*	*	*	*	*
*k[b-e-a-d-g-]	*	*k[b-e-a-d-g-]	*	*k[b-e-a-d-g-]	*	*k[b-e-a-d-g-]	*	*k[b-e-a-d-g-]	*	*k[b-e-a-d-g-]	*k[b-e-a-d-g-]	*	*	*k[b-e-a-d-g-]	*k[b-e-a-d-g-]	*	*k[b-e-a-d-g-]	*k[b-e-a-d-g-]	*
*D-:	*	*D-:	*	*D-:	*	*D-:	*	*D-:	*	*D-:	*D-:	*	*	*D-:	*D-:	*	*D-:	*D-:	*
*M6/4	*	*M6/4	*	*M6/4	*	*M6/4	*	*M6/4	*	*M6/4	*M6/4	*	*	*M6/4	*M6/4	*	*M6/4	*M6/4	*
=1	=1	=1	=1	=1	=1	=1	=1	=1	=1	=1	=1	=1	=1	=1	=1	=1	=1	=1	=1
!	!	!	!	!	!	!	!	!	!	!	!	!	!	!	!	!	!	!LO:TX:a:i:t=No 2.	!
!	!	!LO:TX:a:i:t=con sord&colon;	!	!LO:TX:a:i:t=con sord.	!LO:DY:rj	!LO:TX:a:i:t=con sord.	!LO:DY:rj	!	!	!	!	!	!	!	!	!	!	!	!
1.r	.	[1.DD-/ [1.D-/	.	[1.F/	pp	[1.B-/	pp	1.r	.	1.r	1.r	.	.	1.r	1.r	.	1.r	1.r	.
=2	=2	=2	=2	=2	=2	=2	=2	=2	=2	=2	=2	=2	=2	=2	=2	=2	=2	=2	=2
*	*	*rep	*	*rep	*	*rep	*	*	*	*	*	*	*	*	*	*	*	*	*
1.r	.	1.DD-/_ 1.D-/_	.	1.F/_	.	1.B-/_	.	1.r	.	1.r	1.r	.	.	1.r	1.r	.	1.r	1.r	.
*	*	*Xrep	*	*Xrep	*	*Xrep	*	*	*	*	*	*	*	*	*	*	*	*	*
=3	=3	=3	=3	=3	=3	=3	=3	=3	=3	=3	=3	=3	=3	=3	=3	=3	=3	=3	=3
*	*	*rep	*	*rep	*	*rep	*	*	*	*	*	*	*	*	*	*	*	*	*
1.r	.	1.DD-/_ 1.D-/_	.	1.F/_	.	1.B-/_	.	1.r	.	1.r	1.r	.	.	1.r	1.r	.	1.r	1.r	.
*	*	*Xrep	*	*Xrep	*	*Xrep	*	*	*	*	*	*	*	*	*	*	*	*	*
=4	=4	=4	=4	=4	=4	=4	=4	=4	=4	=4	=4	=4	=4	=4	=4	=4	=4	=4	=4
*	*	*rep	*	*rep	*	*rep	*	*	*	*	*	*	*	*	*	*	*	*	*
1.r	.	1.DD-/] 1.D-/]	.	1.F/]	.	1.B-/]	.	1.r	.	1.r	1.r	.	.	1.r	1.r	.	1.r	1.r	.
*	*	*Xrep	*	*Xrep	*	*Xrep	*	*	*	*	*	*	*	*	*	*	*	*	*
=5	=5	=5	=5	=5	=5	=5	=5	=5	=5	=5	=5	=5	=5	=5	=5	=5	=5	=5	=5
1.r	.	[1.DD-/ [1.D-/	.	1.G-/	.	(1.B-/	.	1.r	.	1.r	1.r	.	.	1.r	1.r	.	1.r	1.r	.
=6	=6	=6	=6	=6	=6	=6	=6	=6	=6	=6	=6	=6	=6	=6	=6	=6	=6	=6	=6
*	*	*rep	*	*	*	*	*	*	*	*	*	*	*	*	*	*	*	*	*
1.r	.	1.DD-/_ 1.D-/_	.	1.G-/	.	1.A-/)	.	1.r	.	1.r	1.r	.	.	1.r	1.r	.	1.r	1.r	.
*	*	*Xrep	*	*	*	*	*	*	*	*	*	*	*	*	*	*	*	*	*
=7	=7	=7	=7	=7	=7	=7	=7	=7	=7	=7	=7	=7	=7	=7	=7	=7	=7	=7	=7
*	*	*rep	*	*	*	*	*	*	*	*	*	*	*	*	*	*	*	*	*
1.r	.	1.DD-/] 1.D-/]	.	1.F/	.	[1.A-/	.	1.r	.	1.r	1.r	.	.	1.r	1.r	.	1.r	1.r	.
*	*	*Xrep	*	*	*	*	*	*	*	*	*	*	*	*	*	*	*	*	*
=8	=8	=8	=8	=8	=8	=8	=8	=8	=8	=8	=8	=8	=8	=8	=8	=8	=8	=8	=8
*	*	*	*	*	*	*rep	*	*	*	*	*	*	*	*	*	*	*	*	*
!	!LO:DY:rj	!	!	!	!	!	!	!	!	!	!	!	!	!	!	!	!	!	!
1.D-\	pp	(1.D-\	.	2.F/	.	1.A-/]	.	1.r	.	1.r	1.r	.	.	1.r	1.r	.	1.D-\	1.r	.
.	.	.	.	2.F-X/	.	.	.	.	.	.	.	.	.	.	.	.	.	.	.
*	*	*	*	*	*	*Xrep	*	*	*	*	*	*	*	*	*	*	*	*	*
=9	=9	=9	=9	=9	=9	=9	=9	=9	=9	=9	=9	=9	=9	=9	=9	=9	=9	=9	=9
1.AA-/	.	1.C/)	.	1.E-/	.	1.A-/	.	1.r	.	1.r	1.r	.	.	1.r	1.r	.	1.AA-/ 1.G-/	1.r	.
!!LO:PB:g=original
=10	=10	=10	=10	=10	=10	=10	=10	=10	=10	=10	=10	=10	=10	=10	=10	=10	=10	=10	=10
*	*	*2\right	*	*	*	*	*	*	*	*	*ped	*	*	*	*ped	*	*	*	*
[1.D-\	.	2.D-\	.	[2.F/	.	[2.A-/	.	1r	.	[1.DDD-/^ [1.DD-/	2.r	.	pp	1.r	2.r	.	[>1.AA-/ [1.F/	[>1.d-/ [1.f/	.
!	!	!	!	!	!	!	!	!	!	!	!LO:TX:b:i:t=u.c.	!	!	!	!LO:TX:b:i:t=u.c.	!	!	!	!
.	.	2ryy	.	2F/]	.	2A-/]	.	.	.	.	4r	.	.	.	4r	.	.	.	.
.	.	.	.	.	.	.	.	4ryy	.	.	4r	.	.	.	4r	.	.	.	.
!	!	!	!	!	!	!	!	!LO:TX:b:i:t=con sordini	!	!	!	!	!	!	!	!	!	!	!
.	.	(4d-\	.	(4A-/	.	(4f/	.	(4a-\	.	.	(4F\ 4A-\ 4d-\	.	.	.	(4f/ 4a-/	.	.	.	.
=11	=11	=11	=11	=11	=11	=11	=11	=11	=11	=11	=11	=11	=11	=11	=11	=11	=11	=11	=11
*	*	*	*	*	*	*2\right	*	*2\right	*	*	*2\right	*	*	*	*2\right	*	*rep	*rep	*
1.D-\_	.	[2.A-\)	.	[2.D-/)	.	[2.dd-\)	.	[2.ff\)	.	1.DDD-/_ 1.DD-/_	[2.D-\) [2.F\ [2.A-\	.	.	1.r	[2.a-\) [2.dd-\ [2.ff\	.	1.AA-/_> 1.F/_	1.d-/_> 1.f/_	.
.	.	2A-\]	.	2D-/]	.	2dd-\]	.	2ff\]	.	.	2D-\] 2F\] 2A-\]	.	.	.	2a-\] 2dd-\] 2ff\]	.	.	.	.
.	.	4d-\	.	(<4A-/	.	4f/	.	(4a-\	.	.	(4F\ 4A-\ 4d-\	.	.	.	4f/ 4a-/	.	.	.	.
*	*	*	*	*	*	*	*	*	*	*	*	*	*	*	*	*	*Xrep	*Xrep	*
=12	=12	=12	=12	=12	=12	=12	=12	=12	=12	=12	=12	=12	=12	=12	=12	=12	=12	=12	=12
*rep	*	*rep	*	*rep	*	*rep	*	*rep	*	*rep	*rep	*	*	*	*rep	*	*rep	*rep	*
!	!	!	!	!	!	!	!	!	!	!	!	!	!	!	!	!	!	!LO:TX:a:i:t=a=:color=red	!
1.D-\]	.	[2.A-\	.	[2.D-/)	.	[2.dd-\	.	[2.ff\)	.	1.DDD-/_ 1.DD-/_	[2.D-\) [2.F\ [2.A-\	.	.	1.r	[2.a-\ [2.dd-\ [2.ff\	.	1.AA-/_> 1.F/_	1.d-/_> 1.f/_	.
.	.	2A-\]	.	2D-/]	.	2dd-\]	.	2ff\]	.	.	2D-\] 2F\] 2A-\]	.	.	.	2a-\] 2dd-\] 2ff\]	.	.	.	.
.	.	(<4d-\	.	(<4A-/	.	(4f/	.	(4a-\	.	.	(4F\ 4A-\ 4d-\	.	.	.	(4f/ 4a-/	.	.	.	.
*Xrep	*	*Xrep	*	*Xrep	*	*Xrep	*	*Xrep	*	*Xrep	*Xrep	*	*	*	*Xrep	*	*Xrep	*Xrep	*
=13	=13	=13	=13	=13	=13	=13	=13	=13	=13	=13	=13	=13	=13	=13	=13	=13	=13	=13	=13
*	*	*	*	*	*	*	*	*	*	*rep	*	*	*	*	*	*	*rep	*	*
[1.D-\	.	2A-\	.	2D-/	.	2dd-\	.	2ff\	.	1.DDD-/_ 1.DD-/_	2D-\ 2F\ 2A-\	.	.	1.r	2a-\ 2dd-\ 2ff\	.	1.AA-/_> 1.F/_	1.d-/_> 1.f/_	.
.	.	4d-\	.	4A-/	.	4f/	.	4a-\	.	.	4F\ 4A-\ 4d-\	.	.	.	4f/ 4a-/	.	.	.	.
.	.	2A-\	.	2D-/	.	2dd-\	.	2ff\	.	.	2D-\ 2F\ 2A-\	.	.	.	2a-\ 2dd-\ 2ff\	.	.	.	.
.	.	4d-\	.	4A-/	.	4f/	.	4a-\	.	.	4F\ 4A-\ 4d-\	.	.	.	4f/ 4a-/	.	.	.	.
*	*	*	*	*	*	*	*	*	*	*Xrep	*	*	*	*	*	*	*Xrep	*	*
=14	=14	=14	=14	=14	=14	=14	=14	=14	=14	=14	=14	=14	=14	=14	=14	=14	=14	=14	=14
*	*	*	*	*	*	*	*	*	*	*rep	*	*	*	*	*	*	*rep	*	*
1.D-\]	.	1.A-\)	.	1.D-/)	.	1.dd-\)	.	1.ff\)	.	1.DDD-/] 1.DD-/_]	[1.D-\) [1.F\ [1.A-\	.	.	1.r	1.a-\) 1.dd-\ 1.ff\	.	1.AA-/] 1.F/]	1.d-/] 1.f/]	.
*	*	*	*	*	*	*	*	*	*	*Xrep	*Xped	*	*	*	*Xped	*	*Xrep	*clefF4	*
=15	=15	=15	=15	=15	=15	=15	=15	=15	=15	=15	=15	=15	=15	=15	=15	=15	=15	=15	=15
*	*	*	*	*	*	*	*	*	*	*	*ped	*	*	*	*ped	*	*	*	*
!	!	!	!	!	!	!	!	!	!	!	!	!	!LO:DY:b=2:rj	!	!	!	!	!	!
1.D-\	.	1.D-\	.	1.F/	.	[1.A-/	.	[1.d-/	.	(>1.DD-/ 1.D-/	4D-\] 4F\] 4A-\] 4d-\	.	pp	1.r	1.r	.	1.DD-/ 1.D-/	1.F\ 1.A-\	.
.	.	.	.	.	.	.	.	.	.	.	4r	.	.	.	.	.	.	.	.
.	.	.	.	.	.	.	.	.	.	.	4r	.	.	.	.	.	.	.	.
.	.	.	.	.	.	.	.	.	.	.	2.r	.	.	.	.	.	.	.	.
*	*	*	*	*	*	*	*	*	*	*	*Xped	*	*	*	*	*	*	*	*
=16	=16	=16	=16	=16	=16	=16	=16	=16	=16	=16	=16	=16	=16	=16	=16	=16	=16	=16	=16
*	*	*	*	*	*	*	*	*	*	*	*ped	*	*	*	*	*	*	*	*
!	!	!	!	!	!	!	!	!	!	!	!	!	!	!	!	!	!	!LO:TX:a:i:t==B:color=red	!
1.C/	.	1.C/	.	1.F/	.	1.A-/]	.	1.d-/]	.	1.CC/ 1.C/	1.r	.	.	1.r	1.r	.	1.CC/ 1.C/	1.F\ 1.A-\	.
*	*	*	*	*	*	*	*	*	*	*	*Xped	*	*	*	*	*	*	*	*
=17	=17	=17	=17	=17	=17	=17	=17	=17	=17	=17	=17	=17	=17	=17	=17	=17	=17	=17	=17
*	*	*	*	*	*	*	*	*	*	*	*	*	*	*	*	*	*	*^	*
*	*	*	*	*	*	*	*	*	*	*	*	*	*	*	*	*	*	*	*2\right	*
!	!	!	!	!	!	!	!	!	!	!	!LO:TX:b:t=simile	!	!	!	!	!	!	!	!	!
1.BB-/	.	1.BB-/	.	2.F/	.	2B-/	.	(4d-/	.	1.BBB-/ 1.BB-/	1.r	.	.	1.r	1.r	.	1.BBB-/ 1.BB-/	1.B-/	2.F\	.
.	.	.	.	.	.	.	.	4c/	.	.	.	.	.	.	.	.	.	.	.	.
.	.	.	.	.	.	4r	.	4d-/	.	.	.	.	.	.	.	.	.	.	.	.
.	.	.	.	2.G-/	.	2.r	.	2e-/	.	.	.	.	.	.	.	.	.	.	2.G-\	.
.	.	.	.	.	.	.	.	4B-/)	.	.	.	.	.	.	.	.	.	.	.	.
=18	=18	=18	=18	=18	=18	=18	=18	=18	=18	=18	=18	=18	=18	=18	=18	=18	=18	=18	=18	=18
1.AA-/	.	1.AA-/	.	2.F/	.	1.A-/	.	2.d-/	.	1.AAA-/ 1.AA-/	1.r	.	.	1.r	1.r	.	1.AA-/	1.A-/	2.F\	.
.	.	.	.	2.E-/	.	.	.	2.c/	.	.	.	.	.	.	.	.	.	.	2.E-\	.
!!LO:PB:g=original
=19	=19	=19	=19	=19	=19	=19	=19	=19	=19	=19	=19	=19	=19	=19	=19	=19	=19	=19	=19	=19
!	!	!	!	!	!	!	!	!	!	!LO:TX:t=P:problem=brak zakończenia łuku	!	!	!	!	!	!	!	!	!	!
1.GG-/	.	1.GG-/	.	2.D-/	.	2.c/	.	2.d-/	.	1.GGG-/) 1.GG-/	1.r	.	.	1.r	1.r	.	1.GG-/	2.B-^/	1.D-\	.
.	.	.	.	2D-/	.	2c/	.	2c/	.	.	.	.	.	.	.	.	.	2A-/	.	.
.	.	.	.	4G-/	.	4f/	.	4B-/	.	.	.	.	.	.	.	.	.	4G-/	.	.
*	*	*	*	*	*	*	*	*	*	*	*	*	*	*	*	*	*	*v	*v	*
=20	=20	=20	=20	=20	=20	=20	=20	=20	=20	=20	=20	=20	=20	=20	=20	=20	=20	=20	=20
!	!	!	!	!	!	!	!	!	!	!	!LO:TX:b:t=(x)	!	!	!	!	!	!	!	!
2.FF/	.	2.FF/	.	1.D-/	.	1.c/	.	(2A-^/	.	1.FFF/ 1.FF/	1.r	.	.	1.r	1.r	.	1.FF/	1.D-\ 1.A-\	.
.	.	.	.	.	.	.	.	4a-/	.	.	.	.	.	.	.	.	.	.	.
*2\right	*	*	*	*	*	*	*	*	*	*	*	*	*	*	*	*	*	*	*
2.F\	.	2.AA-/	.	.	.	.	.	2f/	.	.	.	.	.	.	.	.	.	.	.
.	.	.	.	.	.	.	.	4d-/)	.	.	.	.	.	.	.	.	.	.	.
=21	=21	=21	=21	=21	=21	=21	=21	=21	=21	=21	=21	=21	=21	=21	=21	=21	=21	=21	=21
*	*	*	*	*	*	*	*	*	*	*	*^	*	*	*	*	*	*^	*	*
*	*	*	*	*	*	*	*	*	*	*	*ped	*	*	*	*	*	*	*	*	*	*
1.E-\	.	2.C/	.	1.G-/	.	1.f/	.	4A-/	.	1.EE-/ 1.EEE-/	1.G-/ [1.A-/^<	2r	4 5	.	1.r	1.r	.	2.C/	1.EE-\	1.G-\ 1.A-\	.
.	.	.	.	.	.	.	.	4r	.	.	.	.	.	.	.	.	.	.	.	.	.
.	.	.	.	.	.	.	.	4A-/	.	.	.	4r	.	.	.	.	.	.	.	.	.
*	*	*	*	*	*	*	*	*	*	*	*	*	*below	*	*	*	*	*	*	*	*
.	.	(4AA-/	.	.	.	.	.	(4c^/	.	.	.	(>4AA-\	1	.	.	.	.	4AA-/	.	.	.
.	.	4BB-/	.	.	.	.	.	4B-/)	.	.	.	4BB-\	2	.	.	.	.	4BB-/	.	.	.
*	*	*	*	*	*	*	*	*	*	*	*	*Xped	*	*	*	*	*	*	*	*	*
.	.	4C/)	.	.	.	.	.	4A-/	.	.	.	4C\)	1	.	.	.	.	4C/	.	.	.
*	*	*	*	*	*	*	*	*	*	*	*v	*v	*	*	*	*	*	*v	*v	*	*
=22	=22	=22	=22	=22	=22	=22	=22	=22	=22	=22	=22	=22	=22	=22	=22	=22	=22	=22	=22
!	!	!	!	!	!	!	!	!	!	!	!	!	!	!	!LO:TX:b:t=u.c.	!	!	!	!
1.D-\	.	[2.D-\	.	[2.F/	.	[2.e-/	.	[2.f/	.	1.DD-/^> 1.DDD-/	[2.D-\ [2.F\ 2.A-\_	1	.	1.r	2.r	.	[1.FF/ [>1.AA-/ [1.D-/	[>1.F\ [1.A-\	.
.	.	2D-\]	.	2F/]	.	2e-/]	.	2f/]	.	.	2D-\] 2F\] 2A-\]	.	.	.	4r	.	.	.	.
.	.	.	.	.	.	.	.	.	.	.	.	.	.	.	4r	.	.	.	.
.	.	(4d-\	.	(4B-/	.	(4a-/	.	(4a-\	.	.	4F\ 4A-\ 4d-\	.	.	.	4f/ 4a-/	pp	.	.	.
=23	=23	=23	=23	=23	=23	=23	=23	=23	=23	=23	=23	=23	=23	=23	=23	=23	=23	=23	=23
!LO:TX:t=P:problem=t. 23-26 oznaczone a=B	!	!LO:TX:t=P:problem=t. 23-26 oznaczone a=B	!	!LO:TX:t=P:problem=t. 23-26 oznaczone a=B	!	!LO:TX:t=P:problem=t. 23-26 oznaczone a=B	!	!	!	!LO:TX:t=P:problem=t. 23-26 oznaczone a=B	!LO:TX:t=P:problem=t. 23-26 oznaczone a=B	!	!	!LO:TX:t=P:problem=t. 23-26 oznaczone a=B	!LO:TX:t=P:problem=t. 23-26 oznaczone a=B	!	!	!	!
[1.D-\yy	.	[2.A-\)yy	.	[2.D-/)yy	.	[2.dd-\)yy	.	[2.ff\	.	[1.DD-/yy [1.DDD-/yy	[2.D-\yy [2.F\yy [2.A-\yy	.	.	1.ryy	[2.a-\yy [2.dd-\yy [2.ff\yy	.	1.FF/_ 1.AA-/_> 1.D-/_	1.F\_> 1.A-\_ [1.d-\	.
.	.	2A-\]yy	.	2D-/]yy	.	2dd-\]yy	.	2ff\])	.	.	2D-\]yy 2F\]yy 2A-\]yy	.	.	.	2a-\]yy 2dd-\]yy 2ff\]yy	.	.	.	.
.	.	(y4d-\yy	.	(y4A-/yy	.	(y4f/yy	.	(4a-\	.	.	(y4F\yy 4A-\yy 4d-\yy	.	.	.	(y4f/yy 4a-/yy	.	.	.	.
=24	=24	=24	=24	=24	=24	=24	=24	=24	=24	=24	=24	=24	=24	=24	=24	=24	=24	=24	=24
*repy	*	*repy	*	*repy	*	*repy	*	*rep	*	*repy	*repy	*	*	*	*repy	*	*rep	*rep	*
1.D-\]yy	.	[2.A-\)yy	.	[2.D-/)yy	.	[2.dd-\)yy	.	[2.ff\	.	1.DD-/_yy 1.DDD-/_yy	[2.D-\)yy [2.F\yy [2.A-\yy	.	.	1.ryy	[2.a-\yy [2.dd-\yy [2.ff\)yy	.	1.FF/_ 1.AA-/_> 1.D-/_	1.F\_> 1.A-\_ 1.d-\_	.
.	.	2A-\]yy	.	2D-/]yy	.	2dd-\]yy	.	2ff\])	.	.	2D-\]yy 2F\]yy 2A-\]yy	.	.	.	2a-\]yy 2dd-\]yy 2ff\]yy	.	.	.	.
.	.	(y4d-\yy	.	(y4A-/yy	.	(y4f/yy	.	(4a-\	.	.	(y4F\yy 4A-\yy 4d-\yy	.	.	.	(y4f/yy 4a-/yy	.	.	.	.
*Xrep	*	*Xrep	*	*Xrep	*	*Xrep	*	*Xrep	*	*Xrep	*Xrep	*	*	*	*Xrep	*	*Xrep	*Xrep	*
=25	=25	=25	=25	=25	=25	=25	=25	=25	=25	=25	=25	=25	=25	=25	=25	=25	=25	=25	=25
*	*	*	*	*	*	*	*	*	*	*repy	*	*	*	*	*	*	*rep	*rep	*
[1.D-\yy	.	2A-\yy	.	2D-/yy	.	2dd-\yy	.	2ff\	.	1.DD-/_yy 1.DDD-/_yy	2D-\yy 2F\yy 2A-\yy	.	.	1.ryy	2a-\yy 2dd-\yy 2ff\yy	.	1.FF/_ 1.AA-/_> 1.D-/_	1.F\_> 1.A-\_ 1.d-\_	.
.	.	4d-\yy	.	4A-/yy	.	4f/yy	.	4a-\	.	.	4F\yy 4A-\yy 4d-\yy	.	.	.	4f/yy 4a-/yy	.	.	.	.
.	.	2A-\yy	.	2D-/yy	.	2dd-\yy	.	2ff\	.	.	2D-\yy 2F\yy 2A-\yy	.	.	.	2a-\yy 2dd-\yy 2ff\yy	.	.	.	.
.	.	4d-\yy	.	4A-/yy	.	4f/yy	.	4a-\	.	.	4F\yy 4A-\yy 4d-\yy	.	.	.	4f/yy 4a-/yy	.	.	.	.
*	*	*	*	*	*	*	*	*	*	*Xrep	*	*	*	*	*	*	*Xrep	*Xrep	*
=26	=26	=26	=26	=26	=26	=26	=26	=26	=26	=26	=26	=26	=26	=26	=26	=26	=26	=26	=26
*	*	*	*	*	*	*	*	*	*	*repy	*	*	*	*	*	*	*rep	*rep	*
1.D-\]yy	.	1.A-\)yy	.	1.D-/)yy	.	1.dd-\)yy	.	1.ff\)	.	1.DD-/]yy 1.DDD-/]yy	1.D-\)yy 1.F\yy 1.A-\yy	.	.	1.ryy	1.a-\)yy 1.dd-\yy 1.ff\yy	.	1.FF/] 1.AA-/] 1.D-/]	1.F\] 1.A-\] 1.d-\]	.
*	*	*	*	*	*	*	*	*	*	*	*	*	*	*	*	*	*Xrep	*Xrep	*
*	*	*	*	*	*	*	*	*	*	*Xrep	*	*	*	*	*	*	*	*clefG2	*
!!LO:PB:g=original
=27||	=27||	=27||	=27||	=27||	=27||	=27||	=27||	=27||	=27||	=27||	=27||	=27||	=27||	=27||	=27||	=27||	=27||	=27||	=27||
*k[f#c#g#d#]	*	*k[f#c#g#d#]	*	*k[f#c#g#d#]	*	*k[f#c#g#d#]	*	*k[f#c#g#d#]	*	*k[f#c#g#d#]	*k[f#c#g#d#]	*	*	*k[f#c#g#d#]	*k[f#c#g#d#]	*	*k[f#c#g#d#]	*k[f#c#g#d#]	*
*	*	*	*	*	*	*	*	*	*	*	*	*	*	*	*	*	*2\right	*	*
2.B\	.	[1.c#\	.	2.B/	.	2.G#/	.	2.e#X/	.	1.ryy	1.ryy	.	.	1.ryy	1.ryy	.	2.BB\ 2.C#\ 2.B\	[2.c#/ 2.g#/ [2.cc#/	.
2.A\	.	.	.	2.A/	.	2ryy	.	2.f#/	.	.	.	.	.	.	.	.	2.AA\ 2.C#\ 2.A\	2.c#/] 2.f#/ 2.cc#/]	.
.	.	.	.	.	.	4ryy	.	.	.	.	.	.	.	.	.	.	.	.	.
=28	=28	=28	=28	=28	=28	=28	=28	=28	=28	=28	=28	=28	=28	=28	=28	=28	=28	=28	=28
2.G#\	.	1.c#\]	.	2.G#/	.	2.B/	.	2.g#/	.	1.ryy	1.ryy	.	.	1.ryy	1.ryy	.	2.GG#\ 2.C#\ 2.G#\	2.c#/ 2.e#X/ 2.b/ 2.cc#/	.
2.F#\	.	.	.	2.F#/	.	2.A/	.	2.a/	.	.	.	.	.	.	.	.	2.FF#/ 2.C#/ 2.F#/	2.a/ 2.cc#/	.
=29	=29	=29	=29	=29	=29	=29	=29	=29	=29	=29	=29	=29	=29	=29	=29	=29	=29	=29	=29
1.E\	.	4c#\	.	1.E/	.	1.e/	.	2.a/	.	1.ryy	1.ryy	.	.	1.ryy	1.ryy	.	1.ryy	1.ryy	.
.	.	4B\	.	.	.	.	.	.	.	.	.	.	.	.	.	.	.	.	.
.	.	4c#\	.	.	.	.	.	.	.	.	.	.	.	.	.	.	.	.	.
.	.	2.e\	.	.	.	.	.	2.g#/	.	.	.	.	.	.	.	.	.	.	.
=30	=30	=30	=30	=30	=30	=30	=30	=30	=30	=30	=30	=30	=30	=30	=30	=30	=30	=30	=30
2.BB/	.	2.d#\	.	2.F#/	.	1.B/	.	[2.f#/	.	1.ryy	1.ryy	.	.	1.ryy	1.ryy	.	1.ryy	1.ryy	.
2.E\	.	2.dn\	.	2.G#/	.	.	.	2f#/]	.	.	.	.	.	.	.	.	.	.	.
.	.	.	.	.	.	.	.	4e/	.	.	.	.	.	.	.	.	.	.	.
=31	=31	=31	=31	=31	=31	=31	=31	=31	=31	=31	=31	=31	=31	=31	=31	=31	=31	=31	=31
*	*	*	*	*	*	*	*	*	*	*	*	*	*	*	*	*	*^	*^	*
(2.AA/	.	([2.c#^\	.	2.A/	.	2.A/	.	2.e/	.	1.ryy	1.ryy	.	.	1.ryy	1.ryy	.	2.E/	[2.AA\ 2.C#\	2.e/	1.c#\	.
2.Dn\	.	4c#\]	.	2.F#/	.	2c#/	.	2.f#/	.	.	.	.	.	.	.	.	2.F#/	2.AA\] 2.Dn\	2.f#/	.	.
.	.	4B\)	.	.	.	.	.	.	.	.	.	.	.	.	.	.	.	.	.	.	.
.	.	4A\	.	.	.	4f#/	.	.	.	.	.	.	.	.	.	.	.	.	.	.	.
*	*	*	*	*	*	*	*	*	*	*	*	*	*	*	*	*	*v	*v	*	*	*
=32	=32	=32	=32	=32	=32	=32	=32	=32	=32	=32	=32	=32	=32	=32	=32	=32	=32	=32	=32	=32
2.E\	.	1.G#\	.	(4f#^\	.	(4f#^/	.	(1.g#/	.	1.ryy	1.ryy	.	.	1.ryy	1.ryy	.	2.E\	[2.g#/	4f#\	.
.	.	.	.	4e\	.	4e/	.	.	.	.	.	.	.	.	.	.	.	.	4e\	.
.	.	.	.	4dn\)	.	4dn/)	.	.	.	.	.	.	.	.	.	.	.	.	4dn\	.
*	*	*	*	*2\right	*	*	*	*	*	*	*	*	*	*	*	*	*	*	*	*
!	!	!	!	!	!	!LO:N:vis=2	!	!	!	!	!	!	!	!	!	!	!	!	!	!
!	!	!	!	!	!	!LO:TX:t=P:problem=brak początku łuku	!	!	!	!	!	!	!	!	!	!	!	!	!	!
2.AA/)	.	.	.	2.c#\	.	(<2.c#/	.	.	.	.	.	.	.	.	.	.	2.AA/	2.g#/]	2.c#\	.
*	*	*	*	*	*	*	*	*	*	*	*	*	*	*	*	*	*	*v	*v	*
!!LO:PB:g=original
=33||	=33||	=33||	=33||	=33||	=33||	=33||	=33||	=33||	=33||	=33||	=33||	=33||	=33||	=33||	=33||	=33||	=33||	=33||	=33||
*k[b-e-a-d-g-]	*	*k[b-e-a-d-g-]	*	*k[b-e-a-d-g-]	*	*k[b-e-a-d-g-]	*	*k[b-e-a-d-g-]	*	*k[b-e-a-d-g-]	*k[b-e-a-d-g-]	*	*	*k[b-e-a-d-g-]	*k[b-e-a-d-g-]	*	*k[b-e-a-d-g-]	*k[b-e-a-d-g-]	*
*	*	*	*	*	*	*	*	*	*	*	*	*	*	*	*	*	*	*^	*
*	*	*	*	*	*	*	*	*	*	*	*	*	*	*	*ped	*	*	*	*	*
!	!	!	!	!	!	!	!	!LO:TX:t=P:problem=brak zakończenia łuku	!	!	!	!	!	!	!	!	!	!	!	!
[1.AA-X/	.	(4A-X\	.	(4d-X\	.	2.d-/)	.	2a-/)	.	[1.AAA-X/ [1.AA-X/	1.r	.	.	2.r	2.r	.	2.AA-/ 2.F/	2.a-/	2.d-\	.
.	.	2F\)	.	2F/)	.	.	.	.	.	.	.	.	.	.	.	.	.	.	.	.
.	.	.	.	.	.	.	.	(4a-/	.	.	.	.	.	.	.	.	.	.	.	.
.	.	2.E-\	.	2.G-/	.	2.c/ 2.e-/	.	4cc\	.	.	.	.	.	4ryy	4r	.	2.E-/ 2.G-/	2.e-/	2.c\	.
.	.	.	.	.	.	.	.	4b-\	.	.	.	.	.	4ryy	4r	.	.	.	.	.
.	.	.	.	.	.	.	.	(4a-\)	.	.	.	.	.	(4A-^/	(4a-^\	.	.	.	.	.
*	*	*	*	*	*	*	*	*	*	*	*	*	*	*	*	*	*	*v	*v	*
=34	=34	=34	=34	=34	=34	=34	=34	=34	=34	=34	=34	=34	=34	=34	=34	=34	=34	=34	=34
(<2AA-/]	.	4D-\	.	2F/	.	(2d-/	.	[2.ff\	.	2AAA-/] 2AA-/]	4r	.	.	2.d-/) [2.f/ [2.a-/	[2.dd-\) [2.ff\	.	1.D-\ 1.F\	4d-/	.
.	.	4r	.	.	.	.	.	.	.	.	4r	.	.	.	.	.	.	4r	.
4D-/	.	(4D-\	.	(4d-\	.	4f/	.	.	.	(4DD-^/	(4D-^/	.	.	.	.	.	.	4r	.
[2.AA-/	.	[2.AA-/	.	[2.A-/	.	2a-/	.	2ff\]	.	[2.AAA-/)	[2.AA-/)	.	.	2d-/ 2f/] 2a-/]	2dd-\] 2ff\]	.	.	2.r	.
*	*	*	*	*	*	*	*	*	*	*	*	*	*	*	*Xped	*	*	*	*
*	*	*	*	*	*	*	*	*	*	*	*	*	*	*	*ped	*	*	*	*
.	.	.	.	.	.	4dd-\	.	4dd-\	.	.	.	.	.	(4A-^/	(4a-/	.	.	.	.
=35	=35	=35	=35	=35	=35	=35	=35	=35	=35	=35	=35	=35	=35	=35	=35	=35	=35	=35	=35
2AA-/]	.	2AA-/]	.	2A-/]	.	2cc\	.	[2.aa-\	.	2AAA-/]	2AA-/]	.	.	[2.e-/) [2.g-/ [2.a-/	[2.cc\) [2.aa-\	.	1.E-\ 1.G-\	1.r	.
4E-/	.	(4E-/	.	4e-\	.	4a-/	.	.	.	(4EE-^/	(4E-^\	.	.	.	.	.	.	.	.
[2.AA-/	.	[2.AA-/)	.	[2.A-/	.	2g-/	.	2aa-\])	.	[2.AAA-/)	[2.AA-/)	.	.	2e-/] 2g-/] 2a-/]	2cc\] 2aa-\]	.	.	.	.
*	*	*	*	*	*	*	*	*	*	*	*	*	*	*	*Xped	*	*	*	*
*	*	*	*	*	*	*	*	*	*	*	*	*	*	*	*ped	*	*	*	*
.	.	.	.	.	.	4e-/)	.	(4a-/	.	.	.	.	.	(4A-^/	(4a-^\	.	.	.	.
=36	=36	=36	=36	=36	=36	=36	=36	=36	=36	=36	=36	=36	=36	=36	=36	=36	=36	=36	=36
2AA-/]	.	2AA-/]	.	2A-/]	.	(2d-/	.	[2.ff\	.	2AAA-/]	2AA-/]	.	.	[2.d-/) [2.f/ [<2.a-/	[2.dd-\) [2.ff\	.	1.D-\ 1.F\	1.r	.
4D-/	.	(4D-/	.	4d-\	.	4f/	.	.	.	(4DD-^/	(4D-^\	.	.	.	.	.	.	.	.
*	*	*	*	*	*	*	*	*	*	*	*	*	*	*	*Xped	*	*	*	*
[2.AA-/	.	[2.AA-/)	.	[2.A-/	.	2a-/	.	2ff\]	.	[2.AAA-/)	[2.AA-/)	.	.	2d-/] 2f/] 2a-/]	2dd-\] 2ff\]	.	.	.	.
*	*	*	*	*	*	*	*	*	*	*	*	*	*	*	*ped	*	*	*	*
.	.	.	.	.	.	4dd-\	.	4dd-\	.	.	.	.	.	4A-/	(4a-/	.	.	.	.
=37	=37	=37	=37	=37	=37	=37	=37	=37	=37	=37	=37	=37	=37	=37	=37	=37	=37	=37	=37
2AA-/]	.	2AA-/]	.	2A-/]	.	2cc\	.	[2.aa-\	.	2AAA-/]	2AA-/]	.	.	[2.e-/ [>2.g-/ [2.a-/	[2.cc\) [2.aa-\	.	1.E-\ 1.G-\	1.r	.
4E-\	.	(4E-/	.	4e-\	.	4a-/	.	.	.	(4EE-^/	(4E-^\	.	.	.	.	.	.	.	.
2.AA-/)	.	2.AA-/))	.	2.A-/)	.	2g-/	.	2aa-\])	.	2.AAA-/)	2.AA-/)	.	.	2e-/] 2g-/] 2a-/]	2cc\] 2aa-\]	.	.	.	.
.	.	.	.	.	.	4e-/)	.	4a-/	.	.	.	.	.	4A-/	4a-/	.	.	.	.
!!LO:PB:g=original
=38	=38	=38	=38	=38	=38	=38	=38	=38	=38	=38	=38	=38	=38	=38	=38	=38	=38	=38	=38
*	*	*	*	*	*	*	*	*	*	*	*	*	*	*	*	*	*^	*	*
!	!	!	!	!	!	!	!	!	!	!	!	!	!	!LO:CL:ed	!	!	!	!	!	!
*	*	*	*	*	*	*	*	*	*	*	*ped	*	*	*clefF4	*ped	*	*	*	*	*
1.D-\	.	(2D-/	.	2A-/	.	2.d-/	.	([1.ff\	.	[1.DD-/	(2D-/	.	.	[>1.F\ [1.A-\	([>1.f\ [1.a-\ [1.ff\	.	(2.D-/	(1.DD-\	[>1.dd-\ [1.ff\	.
!	!	!	!	!	!	!	!	!	!	!	!LO:TX:b:t=u.c.	!	!	!	!	!	!	!	!	!
.	.	4AA-/	.	(4A-/	.	.	.	.	.	.	4AA-/	.	.	.	.	.	.	.	.	.
.	.	2C/	.	2c\	.	2.a-/	.	.	.	.	2C/	.	.	.	.	.	2.C/	.	.	.
.	.	4AA-/	.	4A-/	.	.	.	.	.	.	4AA-/	.	.	.	.	.	.	.	.	.
=39	=39	=39	=39	=39	=39	=39	=39	=39	=39	=39	=39	=39	=39	=39	=39	=39	=39	=39	=39	=39
*	*	*	*	*	*	*	*	*	*	*	*	*	*	*2\right	*	*	*	*	*	*
1.D-\	.	2BBn/	.	2Bn/	.	1.a-/	.	2ff\]	.	1.DD-/]	2BBn/	.	.	2F\] 2A-\]	2f\] 2a-\] 2ff\]	.	2.BBn/	1.CC\)	1.dd-\_> 1.ff\_	.
.	.	4AA-/	.	4A-/	.	.	.	4dd-\	.	.	4AA-/	.	.	4F'\ 4A-\	4f'\ 4a-\ 4ff\	.	.	.	.	.
.	.	2C/	.	2c/	.	.	.	2a-/	.	.	2C/	.	.	2F\ 2A-\	2f\ 2a-\ 2ff\	.	2.C/	.	.	.
*	*	*	*	*	*	*	*	*	*	*	*	*	*	*	*Xped	*	*	*	*	*
.	.	4AA-/)	.	4A-/)	.	.	.	4f/)	.	.	4AA-/	.	.	4F\ 4A-\	4f'\ 4a-\ 4ff\	.	.	.	.	.
*	*	*	*	*	*	*	*	*	*	*	*Xped	*	*	*	*	*	*	*	*	*
*	*	*	*	*	*	*	*	*	*	*	*	*	*	*	*	*	*v	*v	*	*
=40	=40	=40	=40	=40	=40	=40	=40	=40	=40	=40	=40	=40	=40	=40	=40	=40	=40	=40	=40
*	*	*	*	*	*	*	*	*	*	*	*ped	*	*	*	*ped	*	*	*	*
*	*	*rep	*	*	*	*	*	*	*	*	*	*	*	*rep	*rep	*	*	*	*
!	!	!LO:TX:t=P:problem=znak powtórzenia 2 taktów	!	!	!	!	!	!	!	!	!	!	!	!LO:TX:t=P:problem=znak powtórzenia 2 taktów	!LO:TX:t=P:problem=znak powtórzenia 2 taktów	!	!	!	!
(2.D-/	.	(<2D-/	.	(2d-\	.	[>1.f/	.	[>1.a-/	.	(2DD-/	2D-/	.	.	[1.F\ [1.A-\	[1.f\ [1.a-\ [1.ff\	.	2.DD-/ 2.D-/	1.dd-\_> 1.ff\_	.
.	.	4AA-/	.	4A-/	.	.	.	.	.	4AAA-/	4AA-/	.	.	.	.	.	.	.	.
2.C/	.	2C/	.	2C/	.	.	.	.	.	2CC/	2C/	.	.	.	.	.	2.CC/ 2.C/	.	.
.	.	4AA-/	.	4A-/	.	.	.	.	.	4AAA-/	4AA-/	.	.	.	.	.	.	.	.
*	*	*Xrep	*	*	*	*	*	*	*	*	*	*	*	*Xrep	*Xrep	*	*	*	*
=41	=41	=41	=41	=41	=41	=41	=41	=41	=41	=41	=41	=41	=41	=41	=41	=41	=41	=41	=41
*	*	*rep	*	*	*	*	*	*	*	*	*	*	*	*rep	*rep	*	*	*	*
2.BBn/	.	2BBn/	.	2F/	.	1.f/_	.	1.a-/_>	.	2BBBn/	2BBn/	.	.	2F\] 2A-\]	2f\] 2a-\] 2ff\]	.	2.BBBn/ 2.BBn/	1.dd-\] 1.ff\]	.
.	.	4AA-/	.	4A-/	.	.	.	.	.	4AAA-/	4AA-/	.	.	4F\ 4A-\	4f'\ 4a-\ 4ff\	.	.	.	.
2.C/)	.	2C/	.	2C/	.	.	.	.	.	2CC/	2C/	.	.	2F\ 2A-\	2f\ 2a-\ 2ff\	.	2.CC/ 2.C/	.	.
*	*	*	*	*	*	*	*	*	*	*	*Xped	*	*	*	*Xped	*	*	*	*
.	.	4AA-/)	.	4A-/	.	.	.	.	.	4AAA-/)	4AA-/)	.	.	4F\ 4A-\	4f'\) 4a-\ 4ff\	.	.	.	.
*	*	*Xrep	*	*	*	*	*	*	*	*	*	*	*	*Xrep	*Xrep	*	*	*	*
=42	=42	=42	=42	=42	=42	=42	=42	=42	=42	=42	=42	=42	=42	=42	=42	=42	=42	=42	=42
*	*	*	*	*	*	*	*	*	*	*	*	*	*	*	*ped	*	*	*	*
([2.D-/	.	1.ryy	.	2D-/)	.	2f/]	.	2a-/]	.	([2.DD-/	(<[2.D-/	.	.	2F\ 2A-\	2f\ 2a-\ 2ff\	.	2DD-\) 2D-\	[1.ff\	.
.	.	.	.	(4A-/	.	(4A-/	.	(4A-/	.	.	.	.	.	4F\ 4A-\	(4f\ 4a-\	.	4r	.	.
2D-/]	.	.	.	[2.F/)	.	[2.d-/)	.	[2.f/)	.	2DD-/]	2D-/]	.	.	[>2.d-\ [2.f\	2.a-\) [2.dd-\ [2.ff\	.	2.r	.	.
4AA-/	.	.	.	.	.	.	.	.	.	4AAA-/	4AA-/	.	.	.	.	.	.	.	.
=43	=43	=43	=43	=43	=43	=43	=43	=43	=43	=43	=43	=43	=43	=43	=43	=43	=43	=43	=43
*	*	*	*	*	*	*	*	*	*	*rep	*rep	*	*	*	*	*	*	*	*
[2.D-/	.	1.ryy	.	2F/]	.	2d-/]	.	2f/]	.	[2.DD-/	[2.D-/	.	.	2d-\] 2f\]	2a-\ 2dd-\] 2ff\]	.	1.r	1.ff\]	.
.	.	.	.	4A-/	.	(4A-/	.	(4A-/	.	.	.	.	.	(4F\ 4A-\	(4f/ 4a-/	.	.	.	.
2D-/]	.	.	.	2.F/	.	2.d-/)	.	2.f/)	.	2DD-/]	2D-/]	.	.	2.d-\) 2.f\	2.a-\ 2.dd-\ 2.ff\	.	.	.	.
4AA-/)	.	.	.	.	.	.	.	.	.	4AAA-/	4AA-/	.	.	.	.	.	.	.	.
*	*	*	*	*	*	*	*	*	*	*Xrep	*Xrep	*	*	*	*	*	*	*	*
!!LO:PB:g=original
=44	=44	=44	=44	=44	=44	=44	=44	=44	=44	=44	=44	=44	=44	=44	=44	=44	=44	=44	=44
*M4/4	*	*M4/4	*	*M4/4	*	*M4/4	*	*M4/4	*	*M4/4	*M4/4	*	*	*M4/4	*M4/4	*	*M4/4	*M4/4	*
*met(c)	*	*met(c)	*	*met(c)	*	*met(c)	*	*met(c)	*	*met(c)	*met(c)	*	*	*met(c)	*met(c)	*	*met(c)	*met(c)	*
!	!	!	!	!	!	!	!	!	!	!	!LO:TX:b:t=10	!	!	!	!LO:TX:b:t=11	!	!	!	!
!	!	!	!	!	!LO:HP:a	!	!	!	!	!	!LO:TX:t=P:problem=zakończenie łuku na górze	!	!	!	!	!	!	!LO:TX:t=P:2.\=4:problem	!
1D-\	<[	1D-\	<[	[1F/	<[	1d-/	<[	[>1f/	<[	2.DDD-/ 2.DD-/)	2.D-\)	.	.	2.d-\ 2.f\	2.a-\) 2.dd-\ 2.ff\	.	1r	[2.ff\	.
.	.	.	.	.	.	.	.	.	.	4r	4r	.	.	4r	4r	.	.	8ff\]	.
.	.	.	.	.	.	.	.	.	.	.	.	.	.	.	.	.	.	8r	.
=45	=45	=45	=45	=45	=45	=45	=45	=45	=45	=45	=45	=45	=45	=45	=45	=45	=45	=45	=45
!	!LO:DY:rj	!	!LO:DY:rj	!	!LO:DY:rj	!	!	!	!LO:DY:rj:t=fp.	!	!	!	!	!	!	!	!	!	!
[2AA-/	fp >	[>1AA-/	fp	1F/]	fp	[>1c/	.	1f/_>	fp	1ryy	1ryy	.	.	1ryy	1ryy	.	1ryy	1ryy	.
8AA-/]	]	.	.	.	.	.	.	.	.	.	.	.	.	.	.	.	.	.	.
8r	.	.	.	.	.	.	.	.	.	.	.	.	.	.	.	.	.	.	.
4r	.	.	.	.	.	.	.	.	.	.	.	.	.	.	.	.	.	.	.
=46	=46	=46	=46	=46	=46	=46	=46	=46	=46	=46	=46	=46	=46	=46	=46	=46	=46	=46	=46
1r	.	1AA-/]	.	1F/	.	1c/]	.	1f/_>	.	1ryy	1ryy	.	.	1ryy	1ryy	.	1ryy	1ryy	.
=47	=47	=47	=47	=47	=47	=47	=47	=47	=47	=47	=47	=47	=47	=47	=47	=47	=47	=47	=47
1r	.	[1GGn/	.	1F/	.	1d-/	.	1f/_>	.	1ryy	1ryy	.	.	1ryy	1ryy	.	1ryy	1ryy	.
=48	=48	=48	=48	=48	=48	=48	=48	=48	=48	=48	=48	=48	=48	=48	=48	=48	=48	=48	=48
!	!LO:DY:rj	!	!	!	!	!	!	!	!	!	!	!	!	!	!	!	!	!	!
1GGn/	ppp	1GG/]	.	1F/	.	1B-/	.	1f/]	.	1ryy	1ryy	.	.	1ryy	1ryy	.	1ryy	1ryy	.
=49	=49	=49	=49	=49	=49	=49	=49	=49	=49	=49	=49	=49	=49	=49	=49	=49	=49	=49	=49
1BB-/	.	1BB-/	.	1Gn/	.	1d-/	.	1en/	.	1ryy	1ryy	.	.	1ryy	1ryy	.	1ryy	1ryy	.
=50	=50	=50	=50	=50	=50	=50	=50	=50	=50	=50	=50	=50	=50	=50	=50	=50	=50	=50	=50
(2AA-/	.	(2AA-/	.	1F/	.	1c/	.	1f/	.	1ryy	1ryy	.	.	1ryy	1ryy	.	1ryy	1ryy	.
4GGn/	.	4GGn/	.	.	.	.	.	.	.	.	.	.	.	.	.	.	.	.	.
4FF/)	.	4FF/)	.	.	.	.	.	.	.	.	.	.	.	.	.	.	.	.	.
!!LO:PB:g=original
=51	=51	=51	=51	=51	=51	=51	=51	=51	=51	=51	=51	=51	=51	=51	=51	=51	=51	=51	=51
4E-^\	.	(4E-^\	.	2Gn/	.	1c/	.	1gn/	.	1r	1r	.	.	1r	1r	.	1r	1r	.
!LO:SIC:v:s=Dn/L	!	!	!	!	!	!	!	!	!	!	!	!	!	!	!	!	!	!	!
8.D-\L	.	8.Dn/L)	.	.	.	.	.	.	.	.	.	.	.	.	.	.	.	.	.
16C\Jk	.	16C/Jk	.	.	.	.	.	.	.	.	.	.	.	.	.	.	.	.	.
4C.\	.	2C/	.	2e-\	.	.	.	.	.	.	.	.	.	.	.	.	.	.	.
8r	.	.	.	.	.	.	.	.	.	.	.	.	.	.	.	.	.	.	.
=52	=52	=52	=52	=52	=52	=52	=52	=52	=52	=52	=52	=52	=52	=52	=52	=52	=52	=52	=52
1r	.	1FF/	.	2f\	.	1c/	.	1a-/	.	1r	1r	.	.	1r	1r	.	1r	1r	.
.	.	.	.	2dn\	.	.	.	.	.	.	.	.	.	.	.	.	.	.	.
=53	=53	=53	=53	=53	=53	=53	=53	=53	=53	=53	=53	=53	=53	=53	=53	=53	=53	=53	=53
2r	.	[2GGn/	.	[2e-\	.	[2c/	.	[2gn/	.	2r	2r	.	.	1r	1r	.	1r	1r	.
4r	.	8GG/]	.	8e-\]	.	8c/]	.	8g/]	.	4r	4r	.	f	.	.	.	.	.	.
.	.	8r	f	8r	f	8r	.	8r	f	.	.	.	.	.	.	.	.	.	.
!	!LO:DY:rj	!	!	!	!	!LO:SIC:v:n=2:s=[8gn	!	!	!	!LO:SIC:v:s=GGn	!LO:SIC:v:s=Gn	!	!	!	!	!	!	!	!
8Gn\	f	[8GG/^L	.	[8Gn^/L	.	(8Gn^/L [8g-/	.	8Gn/ 8dn/ 8bn/	.	8GGG-/L [8GG-/^>	[8G-\L^>	.	.	.	.	.	.	.	.
!	!	!	!	!	!	!LO:SIC:v:s=32gn/LL	!	!	!	!LO:SIC:v:s=GGn	!LO:SIC:v:s=Gn	!	!	!	!	!	!	!	!
8r	.	32GG/LL]	.	32G/LL]	.	32g-/LL]	.	8r	.	32GG-/LL]	32G-\LL]	.	.	.	.	.	.	.	.
*	*	*	*	*	*	*	*	*	*	*	*	*	*	*	*ped	*	*	*	*
.	.	32FF/	.	32Fn/	.	32fn/	.	.	.	32FF/	32F\	.	.	.	.	.	.	.	.
.	.	32EE-/	.	32E-/	.	32e-/	.	.	.	32EE-/	32E-\	.	.	.	.	.	.	.	.
*	*	*	*	*	*	*	*	*	*	*	*ped	*	*	*	*	*	*	*	*
!	!	!	!	!	!	!	!	!	!	!LO:SIC:v:s=DDn	!LO:SIC:v:s=Dn	!	!	!	!	!	!	!	!
.	.	32DDn/JJJ	.	32Dn/JJJ	.	32dn/JJJ)	.	.	.	32DD-/JJJ	32D-\JJJ	.	.	.	.	.	.	.	.
=54	=54	=54	=54	=54	=54	=54	=54	=54	=54	=54	=54	=54	=54	=54	=54	=54	=54	=54	=54
!	!	!LO:TX:a:i:t=sonore.	!	!	!	!	!	!	!	!	!	!	!	!	!	!	!	!	!
8C/	.	[1CCn/	.	8Cn/	.	8c/	.	8Gn/ 8e-/ 8cc/	.	[1CC/	8C/	.	sf	1ryy	4r	.	[1GGn/ [>1C/ [1Gn/	[>1e-/ [1cc/	pp
8r	.	.	.	8r	.	8r	.	8r	.	.	8r	.	.	.	.	.	.	.	.
4r	.	.	.	4r	.	4r	.	4r	.	.	8r	.	pp	.	8r	pp	.	.	.
!	!	!	!	!	!	!	!	!	!	!	!LO:SIC:v:n=2:s=Gn	!	!	!	!LO:SIC:v:n=1:s=8gn	!	!	!	!
.	.	.	.	.	.	.	.	.	.	.	(8G-\ 8c\	.	.	.	(8e-/ 8g-/	.	.	.	.
!	!	!	!	!	!	!	!	!	!	!	!LO:SIC:v:n=1:s=Gn	!	!	!	!LO:SIC:v:n=3:s=4.gn	!	!	!	!
2r	.	.	.	2r	.	2r	.	2r	.	.	4.C\) 4.G-\	.	.	.	4.g-\) 4.cc\ 4.ee-\	.	.	.	.
!	!	!	!	!	!	!	!	!	!	!	!LO:SIC:v:n=2:s=Gn	!	!	!	!LO:SIC:v:n=2:s=8gn	!	!	!	!
.	.	.	.	.	.	.	.	.	.	.	(8G-\ 8c\	.	.	.	(8e-/ 8g-/	.	.	.	.
=55	=55	=55	=55	=55	=55	=55	=55	=55	=55	=55	=55	=55	=55	=55	=55	=55	=55	=55	=55
*	*	*	*	*	*	*	*	*	*	*	*	*	*	*	*	*	*rep	*rep	*
!	!	!LO:TX:t=P:problem=brak początku ligatury	!LO:HP:a	!	!	!	!	!	!	!	!LO:SIC:v:s=Gn	!	!	!	!LO:SIC:v:s=gn	!	!LO:S:s=1:note:problem=note-level slur	!	!
1ryy	.	1CC/_	>]	1r	.	1ryy	.	1ryy	.	2CC/]	4.C\) 4.G-\	.	.	1ryy	4.g-\) 4.cc\ 4.ee-\	.	1GG/] 1C/] 1G/]	1e-/_> (1cc/]	.
!	!	!	!	!	!	!	!	!	!	!	!LO:SIC:v:n=1:s=Gn	!	!	!	!LO:SIC:v:n=1:s=4gn	!	!	!	!
.	.	.	.	.	.	.	.	.	.	.	(8G-\ 8c\	.	.	.	(8e-/ 8g-/	.	.	.	.
!	!	!	!	!	!	!	!	!	!	!	!LO:SIC:v:n=2:s=Gn	!	!	!	!LO:SIC:v:n=3"s=8.gn	!	!	!	!
.	.	.	.	.	.	.	.	.	.	2r	8.C\L) 8.G-\	.	.	.	8.g-\L) 8.cc\ 8.ee-\	.	.	.	.
!	!	!	!	!	!	!	!	!	!	!	!LO:SIC:v:n=1:s=Gn	!	!	!	!LO:SIC:v:n=1:s=16gn	!	!	!	!
.	.	.	.	.	.	.	.	.	.	.	(16G-\Jk 16c\	.	.	.	(16e-\Jk 16g-\	.	.	.	.
!	!	!	!	!	!	!	!	!	!	!	!LO:SIC:v:n=2:s=Gn	!	!	!	!LO:SIC:v:n=3:s=8gn	!	!	!	!
.	.	.	.	.	.	.	.	.	.	.	8C\) 8G-\	.	.	.	8g-\) 8cc\ 8ee-\	.	.	.	.
.	.	.	.	.	.	.	.	.	.	.	8r	.	.	.	8r	.	.	.	.
*	*	*	*	*	*	*	*	*	*	*	*Xped	*	*	*	*Xped	*	*Xrep	*Xrep	*
!!LO:PB:g=original
=56	=56	=56	=56	=56	=56	=56	=56	=56	=56	=56	=56	=56	=56	=56	=56	=56	=56	=56	=56
!	!	!	!LO:DY:rj	!	!LO:DY:rj:t=pp.	!	!LO:DY:rj	!	!LO:DY:t=pp.	!	!	!	!	!	!	!	!	!	!
1r	.	1CC/]	pp	(2E-/	pp	1A-/	pp	2e-/	pp	1ryy	1ryy	.	.	1ryy	1ryy	.	[1AA-\ [1A-\	8e-/] 8a-/)	.
.	.	.	.	.	.	.	.	.	.	.	.	.	.	.	.	.	.	8r	.
.	.	.	.	.	.	.	.	.	.	.	.	.	.	.	.	.	.	4r	.
.	.	.	.	2e-\)	.	.	.	2a-/	.	.	.	.	.	.	.	.	.	2r	.
=57	=57	=57	=57	=57	=57	=57	=57	=57	=57	=57	=57	=57	=57	=57	=57	=57	=57	=57	=57
1AA-/	.	1AA-/	.	2.e-\	.	2A-/	.	1g-/	.	1ryy	1ryy	.	.	1ryy	1ryy	.	8AA-\] 8A-\]	1r	.
.	.	.	.	.	.	.	.	.	.	.	.	.	.	.	.	.	8r	.	.
.	.	.	.	.	.	.	.	.	.	.	.	.	.	.	.	.	4r	.	.
.	.	.	.	.	.	2c/	.	.	.	.	.	.	.	.	.	.	2r	.	.
.	.	.	.	4A-/	.	.	.	.	.	.	.	.	.	.	.	.	.	.	.
=58	=58	=58	=58	=58	=58	=58	=58	=58	=58	=58	=58	=58	=58	=58	=58	=58	=58	=58	=58
*Xtuplet	*	*	*	*	*	*	*	*	*	*	*	*	*	*	*	*	*	*	*
!	!LO:DY:rj	!	!	!	!	!	!	!	!	!	!	!	!	!	!	!	!	!	!LO:DY:rj
12D-'\L	pp	12AA-/L|	.	(>1A-/	.	(>1d-/	.	(>2g-/	.	1r	1r	.	.	1r	1r	.	[>1DD-/ [1AA-/	1r	p
12D-'\	.	12AA-/|	.	.	.	.	.	.	.	.	.	.	.	.	.	.	.	.	.
12D-'\J	.	12AA-/J|	.	.	.	.	.	.	.	.	.	.	.	.	.	.	.	.	.
*rep	*	*	*	*	*	*	*	*	*	*	*	*	*	*	*	*	*	*	*
12D-'\L	.	12AA-/L	.	.	.	.	.	.	.	.	.	.	.	.	.	.	.	.	.
12D-'\	.	12AA-/	.	.	.	.	.	.	.	.	.	.	.	.	.	.	.	.	.
12D-'\J	.	12AA-/J	.	.	.	.	.	.	.	.	.	.	.	.	.	.	.	.	.
*Xrep	*	*	*	*	*	*	*	*	*	*	*	*	*	*	*	*	*	*	*
*rep	*	*rep	*	*	*	*	*	*	*	*	*	*	*	*	*	*	*	*	*
12D-'\L	.	12AA-/L	.	.	.	.	.	8f/)	.	.	.	.	.	.	.	.	.	.	.
12D-'\	.	12AA-/	.	.	.	.	.	.	.	.	.	.	.	.	.	.	.	.	.
*	*	*	*	*	*	*	*	*	*	*	*ped	*	*	*	*ped	*	*	*	*
.	.	.	.	.	.	.	.	8r	.	.	.	.	.	.	.	.	.	.	.
12D-'\J	.	12AA-/J	.	.	.	.	.	.	.	.	.	.	.	.	.	.	.	.	.
*Xrep	*	*Xrep	*	*	*	*	*	*	*	*	*	*	*	*	*	*	*	*	*
*rep	*	*rep	*	*	*	*	*	*	*	*	*	*	*	*	*	*	*	*	*
12D-'\L	.	12AA-/L	.	.	.	.	.	4r	.	.	.	.	.	.	.	.	.	.	.
12D-'\	.	12AA-/	.	.	.	.	.	.	.	.	.	.	.	.	.	.	.	.	.
12D-'\J	.	12AA-/J	.	.	.	.	.	.	.	.	.	.	.	.	.	.	.	.	.
*Xrep	*	*Xrep	*	*	*	*	*	*	*	*	*	*	*	*	*	*	*	*	*
=59	=59	=59	=59	=59	=59	=59	=59	=59	=59	=59	=59	=59	=59	=59	=59	=59	=59	=59	=59
*rep	*	*rep	*	*	*	*	*	*	*	*	*	*	*	*	*	*	*	*	*
12D-'\L	.	12AA-/L|	.	8F/)	.	8f/)	.	1r	.	1r	2F^\	.	.	1r	2f^/	.	1DD-/_ 1AA-/]	[1F/ [1f/	.
12D-'\	.	12AA-/|	.	.	.	.	.	.	.	.	.	.	.	.	.	.	.	.	.
.	.	.	.	8r	.	8r	.	.	.	.	.	.	.	.	.	.	.	.	.
12D-'\J	.	12AA-/J|	.	.	.	.	.	.	.	.	.	.	.	.	.	.	.	.	.
12D-'\L	.	12AA-/L	.	4r	.	4r	.	.	.	.	.	.	.	.	.	.	.	.	.
12D-'\	.	12AA-/	.	.	.	.	.	.	.	.	.	.	.	.	.	.	.	.	.
12D-'\J	.	12AA-/J	.	.	.	.	.	.	.	.	.	.	.	.	.	.	.	.	.
12D-'\L	.	12AA-/L	.	2r	.	2r	.	.	.	.	2r	.	.	.	2r	.	.	.	.
12D-'\	.	12AA-/	.	.	.	.	.	.	.	.	.	.	.	.	.	.	.	.	.
12D-'\J	.	12AA-/J	.	.	.	.	.	.	.	.	.	.	.	.	.	.	.	.	.
12D-'\L	.	12AA-/L	.	.	.	.	.	.	.	.	.	.	.	.	.	.	.	.	.
12D-'\	.	12AA-/	.	.	.	.	.	.	.	.	.	.	.	.	.	.	.	.	.
12D-'\J	.	12AA-/J	.	.	.	.	.	.	.	.	.	.	.	.	.	.	.	.	.
*Xrep	*	*Xrep	*	*	*	*	*	*	*	*	*	*	*	*	*	*	*	*	*
=60	=60	=60	=60	=60	=60	=60	=60	=60	=60	=60	=60	=60	=60	=60	=60	=60	=60	=60	=60
*	*	*	*	*	*	*	*	*	*	*	*	*	*	*	*	*	*^	*	*
*rep	*	*	*	*	*	*	*	*	*	*	*	*	*	*	*	*	*	*	*	*
!	!	!	!	!	!	!	!	!	!	!	!	!	!	!	!	!	!	!LO:TX:b:t=P:problem=brak początku ligatury	!	!
12D-'\L	.	12AAn'/L	.	1r	.	1r	.	1r	.	1r	2F^\	.	.	1r	2f^/	.	(2AAn/	[1DD-\]	1F/] 1f/]	.
12D-'\	.	12AA'/	.	.	.	.	.	.	.	.	.	.	.	.	.	.	.	.	.	.
12D-'\J	.	12AA'/J	.	.	.	.	.	.	.	.	.	.	.	.	.	.	.	.	.	.
*	*	*rep	*	*	*	*	*	*	*	*	*	*	*	*	*	*	*	*	*	*
12D-'\L	.	12AA'/L	.	.	.	.	.	.	.	.	.	.	.	.	.	.	.	.	.	.
12D-'\	.	12AA'/	.	.	.	.	.	.	.	.	.	.	.	.	.	.	.	.	.	.
12D-'\J	.	12AA'/J	.	.	.	.	.	.	.	.	.	.	.	.	.	.	.	.	.	.
*	*	*Xrep	*	*	*	*	*	*	*	*	*	*	*	*	*	*	*	*	*	*
!	!	!	!	!	!	!	!	!	!	!	!	!	!	!	!	!	!LO:TX:t=P:problem=brak początku ligatury	!	!	!
12D-'\L	.	12BB-'/L	.	.	.	.	.	.	.	.	2r	.	.	.	2r	.	[2BB-/)	.	.	.
12D-'\	.	12BB-'/	.	.	.	.	.	.	.	.	.	.	.	.	.	.	.	.	.	.
12D-'\J	.	12BB-'/J	.	.	.	.	.	.	.	.	.	.	.	.	.	.	.	.	.	.
*	*	*rep	*	*	*	*	*	*	*	*	*	*	*	*	*	*	*	*	*	*
12D-'\L	.	12BB-'/L	.	.	.	.	.	.	.	.	.	.	.	.	.	.	.	.	.	.
12D-'\	.	12BB-'/	.	.	.	.	.	.	.	.	.	.	.	.	.	.	.	.	.	.
12D-'\J	.	12BB-'/J	.	.	.	.	.	.	.	.	.	.	.	.	.	.	.	.	.	.
*Xrep	*	*Xrep	*	*	*	*	*	*	*	*	*	*	*	*	*	*	*	*	*	*
*	*	*	*	*	*	*	*	*	*	*	*	*	*	*	*	*	*v	*v	*	*
!!LO:PB:g=original
=61	=61	=61	=61	=61	=61	=61	=61	=61	=61	=61	=61	=61	=61	=61	=61	=61	=61	=61	=61
*	*	*Xtuplet	*	*	*	*	*	*	*	*	*	*	*	*	*	*	*	*	*
12D-\L	.	12BB-/L	.	1r	.	1r	.	1r	.	1r	2F^\	.	.	1r	2f^/	.	1DD-/] 1FF/ 1BB-/]	1F/ [1f/	.
12D-\	.	12BB-/	.	.	.	.	.	.	.	.	.	.	.	.	.	.	.	.	.
12D-\J	<	12BB-/J	<	.	.	.	.	.	.	.	.	.	.	.	.	.	.	.	.
*rep	*	*rep	*	*	*	*	*	*	*	*	*	*	*	*	*	*	*	*	*
12D-\L	.	12BB-/L	.	.	.	.	.	.	.	.	.	.	.	.	.	.	.	.	.
12D-\	.	12BB-/	.	.	.	.	.	.	.	.	.	.	.	.	.	.	.	.	.
12D-\J	.	12BB-/J	.	.	.	.	.	.	.	.	.	.	.	.	.	.	.	.	.
*Xrep	*	*Xrep	*	*	*	*	*	*	*	*	*	*	*	*	*	*	*	*	*
*rep	*	*rep	*	*	*	*	*	*	*	*	*	*	*	*	*	*	*	*	*
12D-\L	.	12BB-/L	.	.	.	.	.	.	.	.	2r	.	.	.	2r	.	.	.	.
12D-\	.	12BB-/	.	.	.	.	.	.	.	.	.	.	.	.	.	.	.	.	.
12D-\J	.	12BB-/J	.	.	.	.	.	.	.	.	.	.	.	.	.	.	.	.	.
*Xrep	*	*Xrep	*	*	*	*	*	*	*	*	*	*	*	*	*	*	*	*	*
*rep	*	*rep	*	*	*	*	*	*	*	*	*	*	*	*	*	*	*	*	*
12D-\L	.	12BB-/L	.	.	.	.	.	.	.	.	.	.	.	.	.	.	.	.	.
12D-\	.	12BB-/	.	.	.	.	.	.	.	.	.	.	.	.	.	.	.	.	.
12D-\J	[[	12BB-/J	[[	.	.	.	.	.	.	.	.	.	.	.	.	.	.	.	.
*Xrep	*	*Xrep	*	*	*	*	*	*	*	*	*	*	*	*	*	*	*	*	*
=62	=62	=62	=62	=62	=62	=62	=62	=62	=62	=62	=62	=62	=62	=62	=62	=62	=62	=62	=62
*	*	*	*	*	*	*	*	*	*	*	*	*	*	*	*	*	*	*^	*
*	*	*	*	*tremolo	*	*tremolo	*	*tremolo	*	*	*	*	*	*	*	*	*	*	*	*
!	!LO:DY:rj	!	!LO:DY:rj	!	!LO:DY:rj	!	!LO:DY:rj	!LO:SIC:v:s=32gn-/LLL	!LO:DY:rj	!	!	!	!	!	!	!	!LO:SIC:v:n=2:s=1GGn	!	!LO:SIC:v:n=2:s=1Gn	!
12C/L	fp	12C/L	fp	32C/LLL	fp	32B-/LLL	fp	32g-/LLL	fp	1r	2C/	.	.	1ryy	2c/	.	1CC/ 1GG-/ 1C/	(2f/]	1G-\	.
!	!	!	!	!	!	!	!	!LO:SIC:v:s=32g-/	!	!	!	!	!	!	!	!	!	!	!	!
.	.	.	.	32C/	.	32B-/	.	32g-/	.	.	.	.	.	.	.	.	.	.	.	.
!	!	!	!	!	!	!	!	!LO:SIC:v:s=32g-/	!	!	!	!	!	!	!	!	!	!	!	!
.	.	.	.	32C/	.	32B-/	.	32g-/	.	.	.	.	.	.	.	.	.	.	.	.
12C/	.	12C/	.	.	.	.	.	.	.	.	.	.	.	.	.	.	.	.	.	.
!	!	!	!	!	!	!	!	!LO:SIC:v:s=32g-/	!	!	!	!	!	!	!	!	!	!	!	!
.	.	.	.	32C/	.	32B-/	.	32g-/	.	.	.	.	.	.	.	.	.	.	.	.
!	!	!	!	!	!	!	!	!LO:SIC:v:s=32g-/	!	!	!	!	!	!	!	!	!	!	!	!
.	.	.	.	32C/	.	32B-/	.	32g-/	.	.	.	.	.	.	.	.	.	.	.	.
!	!	!	!	!	!	!	!	!LO:SIC:v:s=32g-/	!	!	!	!	!	!	!	!	!	!	!	!
.	.	.	.	32C/	.	32B-/	.	32g-/	.	.	.	.	.	.	.	.	.	.	.	.
12C/J	.	12C/J	.	.	.	.	.	.	.	.	.	.	.	.	.	.	.	.	.	.
!	!	!	!	!	!	!	!	!LO:SIC:v:s=32g-/	!	!	!	!	!	!	!	!	!	!	!	!
.	.	.	.	32C/	.	32B-/	.	32g-/	.	.	.	.	.	.	.	.	.	.	.	.
!	!	!	!	!	!	!	!	!LO:SIC:v:s=32g-/	!	!	!	!	!	!	!	!	!	!	!	!
.	.	.	.	32C/	.	32B-/	.	32g-/	.	.	.	.	.	.	.	.	.	.	.	.
!	!	!	!	!	!	!	!	!LO:SIC:v:s=32g-/	!	!	!	!	!	!	!	!	!	!	!	!
*rep	*	*rep	*	*	*	*	*	*	*	*	*	*	*	*	*	*	*	*	*	*
12C/L	.	12C/L	.	32C/	.	32B-/	.	32g-/	.	.	.	.	.	.	.	.	.	.	.	.
!	!	!	!	!	!	!	!	!LO:SIC:v:s=32g-/	!	!	!	!	!	!	!	!	!	!	!	!
.	.	.	.	32C/	.	32B-/	.	32g-/	.	.	.	.	.	.	.	.	.	.	.	.
!	!	!	!	!	!	!	!	!LO:SIC:v:s=32g-/	!	!	!	!	!	!	!	!	!	!	!	!
.	.	.	.	32C/	.	32B-/	.	32g-/	.	.	.	.	.	.	.	.	.	.	.	.
12C/	.	12C/	.	.	.	.	.	.	.	.	.	.	.	.	.	.	.	.	.	.
!	!	!	!	!	!	!	!	!LO:SIC:v:s=32g-/	!	!	!	!	!	!	!	!	!	!	!	!
.	.	.	.	32C/	.	32B-/	.	32g-/	.	.	.	.	.	.	.	.	.	.	.	.
!	!	!	!	!	!	!	!	!LO:SIC:v:s=32g-/	!	!	!	!	!	!	!	!	!	!	!	!
.	.	.	.	32C/	.	32B-/	.	32g-/	.	.	.	.	.	.	.	.	.	.	.	.
!	!	!	!	!	!	!	!	!LO:SIC:v:s=32g-/	!	!	!	!	!	!	!	!	!	!	!	!
.	.	.	.	32C/	.	32B-/	.	32g-/	.	.	.	.	.	.	.	.	.	.	.	.
12C/J	.	12C/J	.	.	.	.	.	.	.	.	.	.	.	.	.	.	.	.	.	.
!	!	!	!	!	!	!	!	!LO:SIC:v:s=32g-/	!	!	!	!	!	!	!	!	!	!	!	!
.	.	.	.	32C/	.	32B-/	.	32g-/	.	.	.	.	.	.	.	.	.	.	.	.
!	!	!	!	!	!	!	!	!LO:SIC:v:s=32g-/	!	!	!	!	!	!	!	!	!	!	!	!
.	.	.	.	32C/	.	32B-/	.	32g-/	.	.	.	.	.	.	.	.	.	.	.	.
!	!	!	!	!	!	!	!	!LO:SIC:v:s=32g-/	!	!	!	!	!	!	!	!	!	!	!	!
*Xrep	*	*Xrep	*	*	*	*	*	*	*	*	*	*	*	*	*	*	*	*	*	*
*rep	*	*rep	*	*	*	*	*	*	*	*	*	*	*	*	*	*	*	*	*	*
12C/L	.	12C/L	.	32C/	.	32B-/	.	32g-/	.	.	2r	.	.	.	2r	.	.	2en/)	.	.
!	!	!	!	!	!	!	!	!LO:SIC:v:s=32g-/	!	!	!	!	!	!	!	!	!	!	!	!
.	.	.	.	32C/	.	32B-/	.	32g-/	.	.	.	.	.	.	.	.	.	.	.	.
!	!	!	!	!	!	!	!	!LO:SIC:v:s=32g-/	!	!	!	!	!	!	!	!	!	!	!	!
.	.	.	.	32C/	.	32B-/	.	32g-/	.	.	.	.	.	.	.	.	.	.	.	.
12C/	.	12C/	.	.	.	.	.	.	.	.	.	.	.	.	.	.	.	.	.	.
!	!	!	!	!	!	!	!	!LO:SIC:v:s=32g-/	!	!	!	!	!	!	!	!	!	!	!	!
.	.	.	.	32C/	.	32B-/	.	32g-/	.	.	.	.	.	.	.	.	.	.	.	.
!	!	!	!	!	!	!	!	!LO:SIC:v:s=32g-/	!	!	!	!	!	!	!	!	!	!	!	!
.	.	.	.	32C/	.	32B-/	.	32g-/	.	.	.	.	.	.	.	.	.	.	.	.
!	!	!	!	!	!	!	!	!LO:SIC:v:s=32g-/	!	!	!	!	!	!	!	!	!	!	!	!
.	.	.	.	32C/	.	32B-/	.	32g-/	.	.	.	.	.	.	.	.	.	.	.	.
12C/J	.	12C/J	.	.	.	.	.	.	.	.	.	.	.	.	.	.	.	.	.	.
!	!	!	!	!	!	!	!	!LO:SIC:v:s=32g-/	!	!	!	!	!	!	!	!	!	!	!	!
.	.	.	.	32C/	.	32B-/	.	32g-/	.	.	.	.	.	.	.	.	.	.	.	.
!	!	!	!	!	!	!	!	!LO:SIC:v:s=32g-/	!	!	!	!	!	!	!	!	!	!	!	!
.	.	.	.	32C/	.	32B-/	.	32g-/	.	.	.	.	.	.	.	.	.	.	.	.
!	!	!	!	!	!	!	!	!LO:SIC:v:s=32g-/	!	!	!	!	!	!	!	!	!	!	!	!
*Xrep	*	*Xrep	*	*	*	*	*	*	*	*	*	*	*	*	*	*	*	*	*	*
*rep	*	*repy	*	*	*	*	*	*	*	*	*	*	*	*	*	*	*	*	*	*
12C/L	.	12C/Lyy	.	32C/	.	32B-/	.	32g-/	.	.	.	.	.	.	.	.	.	.	.	.
!	!	!	!	!	!	!	!	!LO:SIC:v:s=32g-/	!	!	!	!	!	!	!	!	!	!	!	!
.	.	.	.	32C/	.	32B-/	.	32g-/	.	.	.	.	.	.	.	.	.	.	.	.
!	!	!	!	!	!	!	!	!LO:SIC:v:s=32g-/	!	!	!	!	!	!	!	!	!	!	!	!
.	.	.	.	32C/	.	32B-/	.	32g-/	.	.	.	.	.	.	.	.	.	.	.	.
12C/	.	12C/yy	.	.	.	.	.	.	.	.	.	.	.	.	.	.	.	.	.	.
!	!	!	!	!	!	!	!	!LO:SIC:v:s=32g-/	!	!	!	!	!	!	!	!	!	!	!	!
.	.	.	.	32C/	.	32B-/	.	32g-/	.	.	.	.	.	.	.	.	.	.	.	.
!	!	!	!	!	!	!	!	!LO:SIC:v:s=32g-/	!	!	!	!	!	!	!	!	!	!	!	!
.	.	.	.	32C/	.	32B-/	.	32g-/	.	.	.	.	.	.	.	.	.	.	.	.
!	!	!	!	!	!	!	!	!LO:SIC:v:s=32g-/	!	!	!	!	!	!	!	!	!	!	!	!
.	.	.	.	32C/	.	32B-/	.	32g-/	.	.	.	.	.	.	.	.	.	.	.	.
12C/J	.	12C/Jyy	.	.	.	.	.	.	.	.	.	.	.	.	.	.	.	.	.	.
!	!	!	!	!	!	!	!	!LO:SIC:v:s=32g-/	!	!	!	!	!	!	!	!	!	!	!	!
.	.	.	.	32C/	.	32B-/	.	32g-/	.	.	.	.	.	.	.	.	.	.	.	.
!	!	!	!	!	!	!	!	!LO:SIC:v:s=32g-/JJJ	!	!	!	!	!	!	!	!	!	!	!	!
.	.	.	.	32C/JJJ	.	32B-/JJJ	.	32g-/JJJ	.	.	.	.	.	.	.	.	.	.	.	.
*Xrep	*	*Xrep	*	*Xtremolo	*	*Xtremolo	*	*Xtremolo	*	*	*	*	*	*	*	*	*	*	*	*
*	*	*	*	*	*	*	*	*	*	*	*	*	*	*	*	*	*	*v	*v	*
=63	=63	=63	=63	=63	=63	=63	=63	=63	=63	=63	=63	=63	=63	=63	=63	=63	=63	=63	=63
!	!LO:DY:t=ppp.	!	!	!	!LO:DY:rj:t=pp.	!	!LO:DY:rj:t=pp.	!	!LO:DY:rj	!	!	!	!	!	!	!	!	!	!
[1C/	ppp	12CC'/L 12C/	.	(>1A-/	pp	(>1f/	pp	(>1a-/	pp	1r	1r	.	.	1r	1r	.	1FF/ [1C/	(>[1c/ 1f/	.
.	.	12CC'/ 12C/	.	.	.	.	.	.	.	.	.	.	.	.	.	.	.	.	.
.	.	12CC'/J 12C/	.	.	.	.	.	.	.	.	.	.	.	.	.	.	.	.	.
*	*	*rep	*	*	*	*	*	*	*	*	*	*	*	*	*	*	*	*	*
.	.	12CC'/L 12C/	.	.	.	.	.	.	.	.	.	.	.	.	.	.	.	.	.
.	.	12CC'/ 12C/	.	.	.	.	.	.	.	.	.	.	.	.	.	.	.	.	.
.	.	12CC'/J 12C/	.	.	.	.	.	.	.	.	.	.	.	.	.	.	.	.	.
*	*	*Xrep	*	*	*	*	*	*	*	*	*	*	*	*	*	*	*	*	*
*	*	*rep	*	*	*	*	*	*	*	*	*	*	*	*	*	*	*	*	*
.	.	12CC'/L 12C/	.	.	.	.	.	.	.	.	.	.	.	.	.	.	.	.	.
.	.	12CC'/ 12C/	.	.	.	.	.	.	.	.	.	.	.	.	.	.	.	.	.
.	.	12CC'/J 12C/	.	.	.	.	.	.	.	.	.	.	.	.	.	.	.	.	.
*	*	*Xrep	*	*	*	*	*	*	*	*	*	*	*	*	*	*	*	*	*
*	*	*rep	*	*	*	*	*	*	*	*	*	*	*	*	*	*	*	*	*
.	.	12CC'/L 12C/	.	.	.	.	.	.	.	.	.	.	.	.	.	.	.	.	.
.	.	12CC'/ 12C/	.	.	.	.	.	.	.	.	.	.	.	.	.	.	.	.	.
.	.	12CC'/J 12C/	.	.	.	.	.	.	.	.	.	.	.	.	.	.	.	.	.
*	*	*Xrep	*	*	*	*	*	*	*	*	*	*	*	*	*	*	*	*	*
=64	=64	=64	=64	=64	=64	=64	=64	=64	=64	=64	=64	=64	=64	=64	=64	=64	=64	=64	=64
!	!	!LO:SIC:v:n=1:s=12GGn	!	!LO:SIC:v:s=gn	!	!	!	!LO:SIC:v:s=gn	!	!	!	!	!	!	!	!	!LO:SIC:v:n=1:s=GGn	!	!
1C/]	.	12CC'/L 12GG-/	.	1G-/)	.	1en/)	.	1g-/)	.	1r	1r	.	.	1r	1r	.	1GG-/ 1C/]	1c/_>) 1en/	.
!	!	!LO:SIC:v:n=1:s=12GGn	!	!	!	!	!	!	!	!	!	!	!	!	!	!	!	!	!
.	.	12CC'/ 12GG-/	.	.	.	.	.	.	.	.	.	.	.	.	.	.	.	.	.
!	!	!LO:SIC:v:n=1:s=12GGn	!	!	!	!	!	!	!	!	!	!	!	!	!	!	!	!	!
.	.	12CC'/J 12GG-/	.	.	.	.	.	.	.	.	.	.	.	.	.	.	.	.	.
*	*	*rep	*	*	*	*	*	*	*	*	*	*	*	*	*	*	*	*	*
!	!	!LO:SIC:v:n=1:s=12GGn	!	!	!	!	!	!	!	!	!	!	!	!	!	!	!	!	!
.	.	12CC'/L 12GG-/	.	.	.	.	.	.	.	.	.	.	.	.	.	.	.	.	.
!	!	!LO:SIC:v:n=1:s=12GGn	!	!	!	!	!	!	!	!	!	!	!	!	!	!	!	!	!
.	.	12CC'/ 12GG-/	.	.	.	.	.	.	.	.	.	.	.	.	.	.	.	.	.
!	!	!LO:SIC:v:n=1:s=12GGn	!	!	!	!	!	!	!	!	!	!	!	!	!	!	!	!	!
.	.	12CC'/J 12GG-/	.	.	.	.	.	.	.	.	.	.	.	.	.	.	.	.	.
*	*	*Xrep	*	*	*	*	*	*	*	*	*	*	*	*	*	*	*	*	*
*	*	*rep	*	*	*	*	*	*	*	*	*	*	*	*	*	*	*	*	*
!	!	!LO:SIC:v:n=1:s=12GGn	!	!	!	!	!	!	!	!	!	!	!	!	!	!	!	!	!
.	.	12CC'/L 12GG-/	.	.	.	.	.	.	.	.	.	.	.	.	.	.	.	.	.
!	!	!LO:SIC:v:n=1:s=12GGn	!	!	!	!	!	!	!	!	!	!	!	!	!	!	!	!	!
.	.	12CC'/ 12GG-/	.	.	.	.	.	.	.	.	.	.	.	.	.	.	.	.	.
!	!	!LO:SIC:v:n=1:s=12GGn	!	!	!	!	!	!	!	!	!	!	!	!	!	!	!	!	!
.	.	12CC'/J 12GG-/	.	.	.	.	.	.	.	.	.	.	.	.	.	.	.	.	.
*	*	*Xrep	*	*	*	*	*	*	*	*	*	*	*	*	*	*	*	*	*
*	*	*rep	*	*	*	*	*	*	*	*	*	*	*	*	*	*	*	*	*
!	!	!LO:SIC:v:n=1:s=12GGn	!	!	!	!	!	!	!	!	!	!	!	!	!	!	!	!	!
.	.	12CC'/L 12GG-/	.	.	.	.	.	.	.	.	.	.	.	.	.	.	.	.	.
!	!	!LO:SIC:v:n=1:s=12GGn	!	!	!	!	!	!	!	!	!	!	!	!	!	!	!	!	!
.	.	12CC'/ 12GG-/	.	.	.	.	.	.	.	.	.	.	.	.	.	.	.	.	.
!	!	!LO:SIC:v:n=1:s=12GGn	!	!	!	!	!	!	!	!	!	!	!	!	!	!	!	!	!
.	.	12CC'/J 12GG-/	.	.	.	.	.	.	.	.	.	.	.	.	.	.	.	.	.
*	*	*Xrep	*	*	*	*	*	*	*	*	*	*	*	*	*	*	*	*	*
=65	=65	=65	=65	=65	=65	=65	=65	=65	=65	=65	=65	=65	=65	=65	=65	=65	=65	=65	=65
!	!LO:DY:rj	!	!LO:DY:rj:t=fp.	!	!LO:DY:rj	!	!LO:DY:rj:t=fp.	!	!LO:DY:rj:t=fp.	!	!	!	!	!	!	!	!	!	!LO:DY:rj:t=ffp.
12C/L	fp	12FF/L	fp	1A-/	fp	1f/	fp	1c/	fp	1r	1r	.	.	1r	1r	.	1FF/ 1AA-/ 1C/	1A-/ 1c/] 1f/ 1a-/	ffp
12C/	.	12FF/	.	.	.	.	.	.	.	.	.	.	.	.	.	.	.	.	.
12C/J	.	12FF/J	.	.	.	.	.	.	.	.	.	.	.	.	.	.	.	.	.
*rep	*	*rep	*	*	*	*	*	*	*	*	*	*	*	*	*	*	*	*	*
12C/L	.	12FF/L	.	.	.	.	.	.	.	.	.	.	.	.	.	.	.	.	.
12C/	.	12FF/	.	.	.	.	.	.	.	.	.	.	.	.	.	.	.	.	.
12C/J	.	12FF/J	.	.	.	.	.	.	.	.	.	.	.	.	.	.	.	.	.
*Xrep	*	*Xrep	*	*	*	*	*	*	*	*	*	*	*	*	*	*	*	*	*
*rep	*	*rep	*	*	*	*	*	*	*	*	*	*	*	*	*	*	*	*	*
12C/L	.	12FF/L	.	.	.	.	.	.	.	.	.	.	.	.	.	.	.	.	.
12C/	.	12FF/	.	.	.	.	.	.	.	.	.	.	.	.	.	.	.	.	.
12C/J	.	12FF/J	.	.	.	.	.	.	.	.	.	.	.	.	.	.	.	.	.
*Xrep	*	*Xrep	*	*	*	*	*	*	*	*	*	*	*	*	*	*	*	*	*
*rep	*	*rep	*	*	*	*	*	*	*	*	*	*	*	*	*	*	*	*	*
12C/L	.	12FF/L	.	.	.	.	.	.	.	.	.	.	.	.	.	.	.	.	.
12C/	.	12FF/	.	.	.	.	.	.	.	.	.	.	.	.	.	.	.	.	.
12C/J	.	12FF/J	.	.	.	.	.	.	.	.	.	.	.	.	.	.	.	.	.
*Xrep	*	*Xrep	*	*	*	*	*	*	*	*	*	*	*	*	*	*	*	*	*
!!LO:PB:g=original
=66	=66	=66	=66	=66	=66	=66	=66	=66	=66	=66	=66	=66	=66	=66	=66	=66	=66	=66	=66
*	*	*	*	*	*	*	*	*	*	*tremolo	*	*	*	*	*	*	*	*	*
*	*	*tremolo	*	*tremolo	*	*tremolo	*	*	*	*8ba	*	*	*	*	*	*	*	*	*
!	!	!	!	!	!	!	!	!LO:SIC:v:s=gn	!	!	!	!	!	!	!	!	!	!	!
!	!LO:DY:rj	!	!LO:DY:rj	!	!	!	!LO:DY:rj	!LO:SIC:v:s=Gn	!LO:DY:rj	!LO:TX:b:t=baſsa	!LO:SIC:v:s=Gn	!	!	!	!	!LO:DY:rj	!	!	!
[1C/	ff	32CC/LLL 32C/	ff	32c/LLL	.	32en/LLL	ff	1G-/ 1g-/	ff	32CCC/LLL	(4G-\ 4c\ 4en\	.	ff	1r	2g-/	sf	[1CC/^> [1C/	2G-/ 2g-/	.
.	.	32CC/ 32C/	.	32c/	.	32e/	.	.	.	32CC/	.	.	.	.	.	.	.	.	.
.	.	32CC/ 32C/	.	32c/	.	32e/	.	.	.	32CCC/	.	.	.	.	.	.	.	.	.
.	.	32CC/ 32C/	.	32c/	.	32e/	.	.	.	32CC/	.	.	.	.	.	.	.	.	.
.	.	32CC/ 32C/	.	32c/	.	32e/	.	.	.	32CCC/	.	.	.	.	.	.	.	.	.
.	.	32CC/ 32C/	.	32c/	.	32e/	.	.	.	32CC/	.	.	.	.	.	.	.	.	.
.	.	32CC/ 32C/	.	32c/	.	32e/	.	.	.	32CCC/	.	.	.	.	.	.	.	.	.
.	.	32CC/ 32C/	.	32c/JJJ	.	32e/JJJ	.	.	.	32CC/	.	.	.	.	.	.	.	.	.
.	.	32CC/ 32C/	.	32Bn/LLL	.	32d#X/LLL	.	.	.	32CCC/	8Bn\L 8d#X\	.	.	.	.	.	.	.	.
.	.	32CC/ 32C/	.	32B/	.	32d#/	.	.	.	32CC/	.	.	.	.	.	.	.	.	.
.	.	32CC/ 32C/	.	32B/	.	32d#/	.	.	.	32CCC/	.	.	.	.	.	.	.	.	.
.	.	32CC/ 32C/	.	32B/	.	32d#/	.	.	.	32CC/	.	.	.	.	.	.	.	.	.
.	.	32CC/ 32C/	.	32B-X/	>	32dn/	>	.	>	32CCC/	8B-X\J 8dn\	.	>	.	.	.	.	.	.
.	.	32CC/ 32C/	.	32B-/	.	32d/	.	.	.	32CC/	.	.	.	.	.	.	.	.	.
.	.	32CC/ 32C/	.	32B-/	.	32d/	.	.	.	32CCC/	.	.	.	.	.	.	.	.	.
.	.	32CC/ 32C/	.	32B-/JJJ	.	32d/JJJ	.	.	.	32CC/JJJ	.	.	.	.	.	.	.	.	.
.	.	32CC/ 32C/	>	32An/LLL	.	32c#X/LLL	.	.	.	32CCC/LLL	8An\L 8c#X\	.	.	.	2r	.	.	2r	.
.	.	32CC/ 32C/	.	32A/	.	32c#/	.	.	.	32CC/	.	.	.	.	.	.	.	.	.
.	.	32CC/ 32C/	.	32A/	.	32c#/	.	.	.	32CCC/	.	.	.	.	.	.	.	.	.
.	.	32CC/ 32C/	.	32A/	.	32c#/	.	.	.	32CC/	.	.	.	.	.	.	.	.	.
.	.	32CC/ 32C/	.	32A-X/	.	32cn/	.	.	.	32CCC/	8A-X\ 8cn\	.	.	.	.	.	.	.	.
.	.	32CC/ 32C/	.	32A-/	.	32c/	.	.	.	32CC/	.	.	.	.	.	.	.	.	.
.	.	32CC/ 32C/	.	32A-/	.	32c/	.	.	.	32CCC/	.	.	.	.	.	.	.	.	.
.	.	32CC/ 32C/	.	32A-/JJJ	.	32c/	.	.	.	32CC/	.	.	.	.	.	.	.	.	.
!	!	!	!	!LO:SIC:v:s=32Gn/LLL	!	!	!	!	!	!	!LO:SIC:v:n=2:s=8Gn\	!	!	!	!	!	!	!	!
.	.	32CC/ 32C/	.	32G-/LLL	.	32Bn/	.	.	.	32CCC/	8G-\ 8Bn\	.	.	.	.	.	.	.	.
!	!	!	!	!LO:SIC:v:s=32Gn/	!	!	!	!	!	!	!	!	!	!	!	!	!	!	!
.	.	32CC/ 32C/	.	32G-/	.	32B/	.	.	.	32CC/	.	.	.	.	.	.	.	.	.
!	!	!	!	!LO:SIC:v:s=32Gn/	!	!	!	!	!	!	!	!	!	!	!	!	!	!	!
.	.	32CC/ 32C/	.	32G-/	.	32B/	.	.	.	32CCC/	.	.	.	.	.	.	.	.	.
!	!	!	!	!LO:SIC:v:s=32Gn/	!	!	!	!	!	!	!	!	!	!	!	!	!	!	!
.	.	32CC/ 32C/	.	32G-/	.	32B/	.	.	.	32CC/	.	.	.	.	.	.	.	.	.
!	!	!	!	!LO:SIC:v:s=32Gn/	!	!	!	!	!	!	!	!	!	!	!	!	!	!	!
.	.	32CC/ 32C/	.	32G-/	.	32B-X/	.	.	.	32CCC/	8G-X\J 8B-X\	.	.	.	.	.	.	.	.
!	!	!	!	!LO:SIC:v:s=32Gn/	!	!	!	!	!	!	!	!	!	!	!	!	!	!	!
.	.	32CC/ 32C/	.	32G-/	.	32B-/	.	.	.	32CC/	.	.	.	.	.	.	.	.	.
!	!	!	!	!LO:SIC:v:s=32Gn/	!	!	!	!	!	!	!	!	!	!	!	!	!	!	!
.	.	32CC/ 32C/	.	32G-/	.	32B-/	.	.	.	32CCC/	.	.	.	.	.	.	.	.	.
!	!	!	!	!LO:SIC:v:s=32Gn/JJJ	!	!	!	!	!	!	!	!	!	!	!	!	!	!	!
.	.	32CC/JJJ 32C/	.	32G-/JJJ	.	32B-/JJJ	.	.	.	32CC/JJJ	.	.	.	.	.	.	.	.	.
*	*	*	*	*	*	*	*	*	*	*X8ba	*	*	*	*	*	*	*	*	*
!!linebreak:original
=67	=67	=67	=67	=67	=67	=67	=67	=67	=67	=67	=67	=67	=67	=67	=67	=67	=67	=67	=67
*	*	*	*	*	*	*	*	*	*	*	*^	*	*	*	*	*	*	*	*
*	*	*	*	*	*	*	*	*	*	*rep	*	*	*	*	*	*	*	*	*	*
!	!	!	!LO:DY:rj	!	!LO:DY:rj	!	!LO:DY:rj	!	!LO:DY:rj	!	!	!	!	!	!	!	!	!	!	!LO:DY:rj:t=p.
1C/]	.	32CC/LLL 32C/	p	32F/LLL	p	32B-/LLL	p	[2c/	p	32CC/LLL	4B-/	2F\	.	p	1r	1r	.	1CC/] 1C/]	1r	p
.	.	32CC/ 32C/	.	32F/	.	32B-/	.	.	.	32C/	.	.	.	.	.	.	.	.	.	.
.	.	32CC/ 32C/	.	32F/	.	32B-/	.	.	.	32CC/	.	.	.	.	.	.	.	.	.	.
.	.	32CC/ 32C/	.	32F/	.	32B-/	.	.	.	32C/	.	.	.	.	.	.	.	.	.	.
.	.	32CC/ 32C/	.	32F/	.	32B-/	.	.	.	32CC/	.	.	.	.	.	.	.	.	.	.
.	.	32CC/ 32C/	.	32F/	.	32B-/	.	.	.	32C/	.	.	.	.	.	.	.	.	.	.
.	.	32CC/ 32C/	.	32F/	.	32B-/	.	.	.	32CC/	.	.	.	.	.	.	.	.	.	.
.	.	32CC/ 32C/	.	32F/	.	32B-/JJJ	.	.	.	32C/	.	.	.	.	.	.	.	.	.	.
.	.	32CC/ 32C/	.	32F/	.	32A-X/LLL	.	.	.	32CC/	4A-X/	.	.	.	.	.	.	.	.	.
.	.	32CC/ 32C/	.	32F/	.	32A-/	.	.	.	32C/	.	.	.	.	.	.	.	.	.	.
.	.	32CC/ 32C/	.	32F/	.	32A-/	.	.	.	32CC/	.	.	.	.	.	.	.	.	.	.
.	.	32CC/ 32C/	.	32F/	.	32A-/	.	.	.	32C/	.	.	.	.	.	.	.	.	.	.
.	.	32CC/ 32C/	.	32F/	.	32A-/	.	.	.	32CC/	.	.	.	.	.	.	.	.	.	.
.	.	32CC/ 32C/	.	32F/	.	32A-/	.	.	.	32C/	.	.	.	.	.	.	.	.	.	.
.	.	32CC/ 32C/	.	32F/	.	32A-/	.	.	.	32CC/	.	.	.	.	.	.	.	.	.	.
.	.	32CC/JJJ 32C/	.	32F/JJJ	.	32A-/JJJ	.	.	.	32C/JJJ	.	.	.	.	.	.	.	.	.	.
!	!	!LO:SIC:v:s=32Gn\LLL	!	!	!	!LO:SIC:v:s=32Gn/LLL	!	!	!	!	!LO:SIC:v:n=1:s=4Gn/	!	!	!	!	!	!	!	!	!
.	.	32G-\LLL	.	32En/LLL	.	32G-/LLL	.	8c/]	.	32CC/LLL	4G-/	4En\	.	.	.	.	.	.	.	.
!	!	!LO:SIC:v:s=32Gn\	!	!	!	!LO:SIC:v:s=32Gn/	!	!	!	!	!	!	!	!	!	!	!	!	!	!
.	.	32G-\	.	32E/	.	32G-/	.	.	.	32C/	.	.	.	.	.	.	.	.	.	.
!	!	!LO:SIC:v:s=32Gn\	!	!	!	!LO:SIC:v:s=32Gn/	!	!	!	!	!	!	!	!	!	!	!	!	!	!
.	.	32G-\	.	32E/	.	32G-/	.	.	.	32CC/	.	.	.	.	.	.	.	.	.	.
!	!	!LO:SIC:v:s=32Gn\	!	!	!	!LO:SIC:v:s=32Gn/	!	!	!	!	!	!	!	!	!	!	!	!	!	!
.	.	32G-\	.	32E/	.	32G-/	.	.	.	32C/	.	.	.	.	.	.	.	.	.	.
!	!	!LO:SIC:v:s=32Gn\	!	!	!	!	!	!	!	!	!	!	!	!	!	!	!	!	!	!
.	.	32G-\	.	32E/	.	32c/	.	8r	.	32CC/	.	.	.	.	.	.	.	.	.	.
!	!	!LO:SIC:v:s=32Gn\	!	!	!	!	!	!	!	!	!	!	!	!	!	!	!	!	!	!
.	.	32G-\	.	32E/	.	32c/	.	.	.	32C/	.	.	.	.	.	.	.	.	.	.
!	!	!LO:SIC:v:s=32Gn\	!	!	!	!	!	!	!	!	!	!	!	!	!	!	!	!	!	!
.	.	32G-\	.	32E/	.	32c/	.	.	.	32CC/	.	.	.	.	.	.	.	.	.	.
!	!	!LO:SIC:v:s=32Gn\JJJ	!	!	!	!	!	!	!	!	!	!	!	!	!	!	!	!	!	!
.	.	32G-\JJJ	.	32E/JJJ	.	32c/JJJ	.	.	.	32C/	.	.	.	.	.	.	.	.	.	.
.	.	32G-X\LLL	.	32E-X/LLL	.	32c/LLL	.	4r	.	32CC/	4G-X/)	4E-X\	.	.	.	.	.	.	.	.
.	.	32G-\	.	32E-/	.	32c/	.	.	.	32C/	.	.	.	.	.	.	.	.	.	.
.	.	32G-\	.	32E-/	.	32c/	.	.	.	32CC/	.	.	.	.	.	.	.	.	.	.
.	.	32G-\	.	32E-/	.	32c/	.	.	.	32C/	.	.	.	.	.	.	.	.	.	.
.	.	32G-\	.	32E-/	.	32c/	.	.	.	32CC/	.	.	.	.	.	.	.	.	.	.
.	.	32G-\	.	32E-/	.	32c/	.	.	.	32C/	.	.	.	.	.	.	.	.	.	.
.	.	32G-\	.	32E-/	.	32c/	.	.	.	32CC/	.	.	.	.	.	.	.	.	.	.
.	.	32G-\JJJ	.	32E-/JJJ	.	32c/JJJ	.	.	.	32C/JJJ	.	.	.	.	.	.	.	.	.	.
*	*	*	*	*	*	*	*	*	*	*	*v	*v	*	*	*	*	*	*	*	*
!	!	!	!	!	!	!	!	!	!	!	!	!	!	!LO:CL:ed	!	!	!	!	!
*Xtremolo	*	*Xtremolo	*	*	*	*	*	*	*	*Xrep	*	*	*	*clefG2	*	*	*	*clefF4	*
=68	=68	=68	=68	=68	=68	=68	=68	=68	=68	=68	=68	=68	=68	=68	=68	=68	=68	=68	=68
!	!LO:DY:rj	!	!LO:DY:rj:t=pp.	!	!LO:DY:rj	!	!LO:DY:rj	!	!	!	!	!	!LO:DY:b=2:rj	!	!	!	!	!	!LO:DY:rj:t=pp.
(2C-X/	pp	(<2C-X\	pp	32G-X/LLL	pp	32e-/LLL	pp	1r	.	(32CC-X/LLL	[>1E-\^ [1G-X\	.	pp	2r	2r	p	(2C-X/	[>1E-\ [1G-X\	pp
.	.	.	.	32G-/	.	32e-/	.	.	.	32C-X/	.	.	.	.	.	.	.	.	.
.	.	.	.	32G-/	.	32e-/	.	.	.	32CC-/	.	.	.	.	.	.	.	.	.
.	.	.	.	32G-/	.	32e-/	.	.	.	32C-/	.	.	.	.	.	.	.	.	.
.	.	.	.	32G-/	.	32e-/	.	.	.	32CC-/	.	.	.	.	.	.	.	.	.
.	.	.	.	32G-/	.	32e-/	.	.	.	32C-/	.	.	.	.	.	.	.	.	.
.	.	.	.	32G-/	.	32e-/	.	.	.	32CC-/	.	.	.	.	.	.	.	.	.
.	.	.	.	32G-/	.	32e-/	.	.	.	32C-/	.	.	.	.	.	.	.	.	.
.	.	.	.	32G-/	.	32e-/	.	.	.	32CC-/	.	.	.	.	.	.	.	.	.
.	.	.	.	32G-/	.	32e-/	.	.	.	32C-/	.	.	.	.	.	.	.	.	.
.	.	.	.	32G-/	.	32e-/	.	.	.	32CC-/	.	.	.	.	.	.	.	.	.
.	.	.	.	32G-/	.	32e-/	.	.	.	32C-/	.	.	.	.	.	.	.	.	.
.	.	.	.	32G-/	.	32e-/	.	.	.	32CC-/	.	.	.	.	.	.	.	.	.
.	.	.	.	32G-/	.	32e-/	.	.	.	32C-/	.	.	.	.	.	.	.	.	.
.	.	.	.	32G-/	.	32e-/	.	.	.	32CC-/	.	.	.	.	.	.	.	.	.
.	.	.	.	32G-/	.	32e-/	.	.	.	32C-X/JJJ	.	.	.	.	.	.	.	.	.
2BB-/	.	2BB-\	.	32G-/	.	32e-/	.	.	.	32BBB-/LLL	.	.	.	[2c^>/	[2cc^\	.	2BB-/	.	.
.	.	.	.	32G-/	.	32e-/	.	.	.	32BB-/	.	.	.	.	.	.	.	.	.
.	.	.	.	32G-/	.	32e-/	.	.	.	32BBB-/	.	.	.	.	.	.	.	.	.
.	.	.	.	32G-/	.	32e-/	.	.	.	32BB-/	.	.	.	.	.	.	.	.	.
.	.	.	.	32G-/	.	32e-/	.	.	.	32BBB-/	.	.	.	.	.	.	.	.	.
.	.	.	.	32G-/	.	32e-/	.	.	.	32BB-/	.	.	.	.	.	.	.	.	.
.	.	.	.	32G-/	.	32e-/	.	.	.	32BBB-/	.	.	.	.	.	.	.	.	.
.	.	.	.	32G-/	.	32e-/	.	.	.	32BB-/	.	.	.	.	.	.	.	.	.
.	.	.	.	32G-/	.	32e-/	.	.	.	32BBB-/	.	.	.	.	.	.	.	.	.
.	.	.	.	32G-/	.	32e-/	.	.	.	32BB-/	.	.	.	.	.	.	.	.	.
.	.	.	.	32G-/	.	32e-/	.	.	.	32BBB-/	.	.	.	.	.	.	.	.	.
.	.	.	.	32G-/	.	32e-/	.	.	.	32BB-/	.	.	.	.	.	.	.	.	.
.	.	.	.	32G-/	.	32e-/	.	.	.	32BBB-/	.	.	.	.	.	.	.	.	.
.	.	.	.	32G-/	.	32e-/	.	.	.	32BB-/	.	.	.	.	.	.	.	.	.
.	.	.	.	32G-/	.	32e-/	.	.	.	32BBB-/	.	.	.	.	.	.	.	.	.
.	.	.	.	32G-/JJJ	.	32e-/JJJ	.	.	.	32BB-/JJJ	.	.	.	.	.	.	.	.	.
=69	=69	=69	=69	=69	=69	=69	=69	=69	=69	=69	=69	=69	=69	=69	=69	=69	=69	=69	=69
!LO:SIC:v:s=2BB--/	!	!	!	!	!	!	!	!	!	!	!	!	!	!	!	!	!	!	!
2AA-/	.	2BB--\	.	32G-/LLL	.	32e-/LLL	.	2r	.	32BBB--/LLL	1E-\] 1G-\]	.	.	2c/]	2cc\]	.	2BB--/	1E-\] 1G-\]	.
.	.	.	.	32G-/	.	32e-/	.	.	.	32BB--/	.	.	.	.	.	.	.	.	.
.	.	.	.	32G-/	.	32e-/	.	.	.	32BBB--/	.	.	.	.	.	.	.	.	.
.	.	.	.	32G-/	.	32e-/	.	.	.	32BB--/	.	.	.	.	.	.	.	.	.
.	.	.	.	32G-/	.	32e-/	.	.	.	32BBB--/	.	.	.	.	.	.	.	.	.
.	.	.	.	32G-/	.	32e-/	.	.	.	32BB--/	.	.	.	.	.	.	.	.	.
.	.	.	.	32G-/	.	32e-/	.	.	.	32BBB--/	.	.	.	.	.	.	.	.	.
.	.	.	.	32G-/	.	32e-/	.	.	.	32BB--/	.	.	.	.	.	.	.	.	.
.	.	.	.	32G-/	.	32e-/	.	.	.	32BBB--/	.	.	.	.	.	.	.	.	.
.	.	.	.	32G-/	.	32e-/	.	.	.	32BB--/	.	.	.	.	.	.	.	.	.
.	.	.	.	32G-/	.	32e-/	.	.	.	32BBB--/	.	.	.	.	.	.	.	.	.
.	.	.	.	32G-/	.	32e-/	.	.	.	32BB--/	.	.	.	.	.	.	.	.	.
.	.	.	.	32G-/	.	32e-/	.	.	.	32BBB--/	.	.	.	.	.	.	.	.	.
.	.	.	.	32G-/	.	32e-/	.	.	.	32BB--/	.	.	.	.	.	.	.	.	.
.	.	.	.	32G-/	.	32e-/	.	.	.	32BBB--/	.	.	.	.	.	.	.	.	.
.	.	.	.	32G-/	.	32e-/	.	.	.	32BB--X/JJJ	.	.	.	.	.	.	.	.	.
!LO:SIC:v:s=(2AA-/)	!	!	!	!	!	!	!	!	!	!	!	!	!	!	!	!	!	!	!
2GG-/)	.	2AA-\)	.	32G-/	.	32e-/	.	(2c/	.	32AAA-/LLL	.	.	.	[2c^>/	[2cc^\	.	[2AA-/)	.	.
.	.	.	.	32G-/	.	32e-/	.	.	.	32AA-/	.	.	.	.	.	.	.	.	.
.	.	.	.	32G-/	.	32e-/	.	.	.	32AAA-/	.	.	.	.	.	.	.	.	.
.	.	.	.	32G-/	.	32e-/	.	.	.	32AA-/	.	.	.	.	.	.	.	.	.
.	.	.	.	32G-/	.	32e-/	.	.	.	32AAA-/	.	.	.	.	.	.	.	.	.
.	.	.	.	32G-/	.	32e-/	.	.	.	32AA-/	.	.	.	.	.	.	.	.	.
.	.	.	.	32G-/	.	32e-/	.	.	.	32AAA-/	.	.	.	.	.	.	.	.	.
.	.	.	.	32G-/	.	32e-/	.	.	.	32AA-/	.	.	.	.	.	.	.	.	.
.	.	.	.	32G-/	.	32e-/	.	.	.	32AAA-/	.	.	.	.	.	.	.	.	.
.	.	.	.	32G-/	.	32e-/	.	.	.	32AA-/	.	.	.	.	.	.	.	.	.
.	.	.	.	32G-/	.	32e-/	.	.	.	32AAA-/	.	.	.	.	.	.	.	.	.
.	.	.	.	32G-/	.	32e-/	.	.	.	32AA-/	.	.	.	.	.	.	.	.	.
.	.	.	.	32G-/	.	32e-/	.	.	.	32AAA-/	.	.	.	.	.	.	.	.	.
.	.	.	.	32G-/	.	32e-/	.	.	.	32AA-/	.	.	.	.	.	.	.	.	.
.	.	.	.	32G-/	.	32e-/	.	.	.	32AAA-/	.	.	.	.	.	.	.	.	.
!	!	!	!	!	!	!LO:TX:a:i:t=(x)	!	!	!	!	!	!	!	!	!	!	!	!	!
.	.	.	.	32G-/JJJ	.	32e-/JJJ	.	.	.	32AA-/JJJ)	.	.	.	.	.	.	.	.	.
*	*	*	*	*	*	*Xtremolo	*	*	*	*	*	*	*	*	*	*	*	*	*
=70||	=70||	=70||	=70||	=70||	=70||	=70||	=70||	=70||	=70||	=70||	=70||	=70||	=70||	=70||	=70||	=70||	=70||	=70||	=70||
*M6/4	*	*M6/4	*	*M6/4	*	*M6/4	*	*M6/4	*	*M6/4	*M6/4	*	*	*M6/4	*M6/4	*	*M6/4	*M6/4	*
*	*	*	*	*	*	*	*	*	*	*	*ped	*	*	*	*ped	*	*	*	*
!LO:TX:a:i:t=col Vcello	!	!	!	!	!	!	!	!	!	!	!	!	!	!	!	!	!	!	!
!	!	!	!	!	!	!LO:TX:a:i:t=(x)	!	!LO:TX:a:i:t=sonore.	!	!	!	!	!	!	!LO:N:vis=2	!	!LO:TX:t=P:problem=brak zakończenia ligatury	!	!LO:DY:rj:t=ppp.
([1.AA-/	.	([1.AA-/	.	32F/LLL	.	4d-/	.	2d-/	.	32AAA-/LLL	1.D-\^ 1.F\	.	.	2.c/] 2.f/	2.cc\]	.	1.AA-/_	[>1.D-\ [1.F\	ppp
.	.	.	.	32F/	.	.	.	.	.	32AA-/	.	.	.	.	.	.	.	.	.
.	.	.	.	32F/	.	.	.	.	.	32AAA-/	.	.	.	.	.	.	.	.	.
.	.	.	.	32F/	.	.	.	.	.	32AA-/	.	.	.	.	.	.	.	.	.
.	.	.	.	32F/	.	.	.	.	.	32AAA-/	.	.	.	.	.	.	.	.	.
.	.	.	.	32F/	.	.	.	.	.	32AA-/	.	.	.	.	.	.	.	.	.
.	.	.	.	32F/	.	.	.	.	.	32AAA-/	.	.	.	.	.	.	.	.	.
.	.	.	.	32F/	.	.	.	.	.	32AA-/	.	.	.	.	.	.	.	.	.
.	.	.	.	32F/	.	4r	.	.	.	32AAA-/	.	.	.	.	.	.	.	.	.
.	.	.	.	32F/	.	.	.	.	.	32AA-/	.	.	.	.	.	.	.	.	.
.	.	.	.	32F/	.	.	.	.	.	32AAA-/	.	.	.	.	.	.	.	.	.
.	.	.	.	32F/	.	.	.	.	.	32AA-/	.	.	.	.	.	.	.	.	.
.	.	.	.	32F/	.	.	.	.	.	32AAA-/	.	.	.	.	.	.	.	.	.
.	.	.	.	32F/	.	.	.	.	.	32AA-/	.	.	.	.	.	.	.	.	.
.	.	.	.	32F/	.	.	.	.	.	32AAA-/	.	.	.	.	.	.	.	.	.
.	.	.	.	32F/	.	.	.	.	.	32AA-/	.	.	.	.	.	.	.	.	.
.	.	.	.	32F/	.	4r	.	4d-/)	.	32AAA-/	.	.	.	.	.	.	.	.	.
.	.	.	.	32F/	.	.	.	.	.	32AA-/	.	.	.	.	.	.	.	.	.
.	.	.	.	32F/	.	.	.	.	.	32AAA-/	.	.	.	.	.	.	.	.	.
.	.	.	.	32F/	.	.	.	.	.	32AA-/	.	.	.	.	.	.	.	.	.
.	.	.	.	32F/	.	.	.	.	.	32AAA-/	.	.	.	.	.	.	.	.	.
.	.	.	.	32F/	.	.	.	.	.	32AA-/	.	.	.	.	.	.	.	.	.
.	.	.	.	32F/	.	.	.	.	.	32AAA-/	.	.	.	.	.	.	.	.	.
.	.	.	.	32F/	.	.	.	.	.	32AA-/JJJ	.	.	.	.	.	.	.	.	.
*	*	*	*	*	*	*	*	*	*	*rep	*	*	*	*	*	*	*	*	*
.	.	.	.	32F/	.	[2.cc^\	.	2d-/	.	32AAA-/LLL	.	.	.	2r.	[2.cc^\	.	.	.	.
.	.	.	.	32F/	.	.	.	.	.	32AA-/	.	.	.	.	.	.	.	.	.
.	.	.	.	32F/	.	.	.	.	.	32AAA-/	.	.	.	.	.	.	.	.	.
.	.	.	.	32F/	.	.	.	.	.	32AA-/	.	.	.	.	.	.	.	.	.
.	.	.	.	32F/	.	.	.	.	.	32AAA-/	.	.	.	.	.	.	.	.	.
.	.	.	.	32F/	.	.	.	.	.	32AA-/	.	.	.	.	.	.	.	.	.
.	.	.	.	32F/	.	.	.	.	.	32AAA-/	.	.	.	.	.	.	.	.	.
.	.	.	.	32F/	.	.	.	.	.	32AA-/	.	.	.	.	.	.	.	.	.
.	.	.	.	32F/	.	.	.	.	.	32AAA-/	.	.	.	.	.	.	.	.	.
.	.	.	.	32F/	.	.	.	.	.	32AA-/	.	.	.	.	.	.	.	.	.
.	.	.	.	32F/	.	.	.	.	.	32AAA-/	.	.	.	.	.	.	.	.	.
.	.	.	.	32F/	.	.	.	.	.	32AA-/	.	.	.	.	.	.	.	.	.
.	.	.	.	32F/	.	.	.	.	.	32AAA-/	.	.	.	.	.	.	.	.	.
.	.	.	.	32F/	.	.	.	.	.	32AA-/	.	.	.	.	.	.	.	.	.
.	.	.	.	32F/	.	.	.	.	.	32AAA-/	.	.	.	.	.	.	.	.	.
.	.	.	.	32F/	.	.	.	.	.	32AA-/	.	.	.	.	.	.	.	.	.
.	.	.	.	32F/	.	.	.	4d-/	.	32AAA-/	.	.	.	.	.	.	.	.	.
.	.	.	.	32F/	.	.	.	.	.	32AA-/	.	.	.	.	.	.	.	.	.
.	.	.	.	32F/	.	.	.	.	.	32AAA-/	.	.	.	.	.	.	.	.	.
.	.	.	.	32F/	.	.	.	.	.	32AA-/	.	.	.	.	.	.	.	.	.
.	.	.	.	32F/	.	.	.	.	.	32AAA-/	.	.	.	.	.	.	.	.	.
.	.	.	.	32F/	.	.	.	.	.	32AA-/	.	.	.	.	.	.	.	.	.
.	.	.	.	32F/	.	.	.	.	.	32AAA-/	.	.	.	.	.	.	.	.	.
.	.	.	.	32F/JJJ	.	.	.	.	.	32AA-/JJJ	.	.	.	.	.	.	.	.	.
*	*	*	*	*	*	*	*	*	*	*Xrep	*	*	*	*	*	*	*	*	*
=71	=71	=71	=71	=71	=71	=71	=71	=71	=71	=71	=71	=71	=71	=71	=71	=71	=71	=71	=71
*	*	*	*	*	*	*	*	*	*	*rep	*	*	*	*	*	*	*	*	*
2AA-^/]	.	2AA-^/]	.	32F/LLL	.	(2.cc\]	.	[2.d-^/	.	32AAA-/LLL	1.D-\^ 1.F\	.	.	1.r	2.cc\]	.	1.AA-/_	1.D-\] 1.F\]	.
.	.	.	.	32F/	.	.	.	.	.	32AA-/	.	.	.	.	.	.	.	.	.
.	.	.	.	32F/	.	.	.	.	.	32AAA-/	.	.	.	.	.	.	.	.	.
.	.	.	.	32F/	.	.	.	.	.	32AA-/	.	.	.	.	.	.	.	.	.
.	.	.	.	32F/	.	.	.	.	.	32AAA-/	.	.	.	.	.	.	.	.	.
.	.	.	.	32F/	.	.	.	.	.	32AA-/	.	.	.	.	.	.	.	.	.
.	.	.	.	32F/	.	.	.	.	.	32AAA-/	.	.	.	.	.	.	.	.	.
.	.	.	.	32F/	.	.	.	.	.	32AA-/	.	.	.	.	.	.	.	.	.
.	.	.	.	32F/	.	.	.	.	.	32AAA-/	.	.	.	.	.	.	.	.	.
.	.	.	.	32F/	.	.	.	.	.	32AA-/	.	.	.	.	.	.	.	.	.
.	.	.	.	32F/	.	.	.	.	.	32AAA-/	.	.	.	.	.	.	.	.	.
.	.	.	.	32F/	.	.	.	.	.	32AA-/	.	.	.	.	.	.	.	.	.
.	.	.	.	32F/	.	.	.	.	.	32AAA-/	.	.	.	.	.	.	.	.	.
.	.	.	.	32F/	.	.	.	.	.	32AA-/	.	.	.	.	.	.	.	.	.
.	.	.	.	32F/	.	.	.	.	.	32AAA-/	.	.	.	.	.	.	.	.	.
.	.	.	.	32F/	.	.	.	.	.	32AA-/	.	.	.	.	.	.	.	.	.
4AA-'/	.	4AA-'/	.	32F/	.	.	.	.	.	32AAA-/	.	.	.	.	.	.	.	.	.
.	.	.	.	32F/	.	.	.	.	.	32AA-/	.	.	.	.	.	.	.	.	.
.	.	.	.	32F/	.	.	.	.	.	32AAA-/	.	.	.	.	.	.	.	.	.
.	.	.	.	32F/	.	.	.	.	.	32AA-/	.	.	.	.	.	.	.	.	.
.	.	.	.	32F/	.	.	.	.	.	32AAA-/	.	.	.	.	.	.	.	.	.
.	.	.	.	32F/	.	.	.	.	.	32AA-/	.	.	.	.	.	.	.	.	.
.	.	.	.	32F/	.	.	.	.	.	32AAA-/	.	.	.	.	.	.	.	.	.
.	.	.	.	32F/JJJ	.	.	.	.	.	32AA-/JJJ	.	.	.	.	.	.	.	.	.
!	!	!	!	!	!	!	!	!	!LO:DY:rj	!	!	!	!	!	!	!	!	!	!
2AA-^/	.	2AA-^/	.	32F/LLL 32A-/	.	2.b-\)	.	2d-/]	pp	32AAA-/LLL	.	.	.	.	[2.b-^\	.	.	.	.
.	.	.	.	32F/ 32A-/	.	.	.	.	.	32AA-/	.	.	.	.	.	.	.	.	.
.	.	.	.	32F/ 32A-/	.	.	.	.	.	32AAA-/	.	.	.	.	.	.	.	.	.
.	.	.	.	32F/ 32A-/	.	.	.	.	.	32AA-/	.	.	.	.	.	.	.	.	.
.	.	.	.	32F/ 32A-/	.	.	.	.	.	32AAA-/	.	.	.	.	.	.	.	.	.
.	.	.	.	32F/ 32A-/	.	.	.	.	.	32AA-/	.	.	.	.	.	.	.	.	.
.	.	.	.	32F/ 32A-/	.	.	.	.	.	32AAA-/	.	.	.	.	.	.	.	.	.
.	.	.	.	32F/ 32A-/	.	.	.	.	.	32AA-/	.	.	.	.	.	.	.	.	.
.	.	.	.	32F/ 32A-/	.	.	.	.	.	32AAA-/	.	.	.	.	.	.	.	.	.
.	.	.	.	32F/ 32A-/	.	.	.	.	.	32AA-/	.	.	.	.	.	.	.	.	.
.	.	.	.	32F/ 32A-/	.	.	.	.	.	32AAA-/	.	.	.	.	.	.	.	.	.
.	.	.	.	32F/ 32A-/	.	.	.	.	.	32AA-/	.	.	.	.	.	.	.	.	.
.	.	.	.	32F/ 32A-/	.	.	.	.	.	32AAA-/	.	.	.	.	.	.	.	.	.
.	.	.	.	32F/ 32A-/	.	.	.	.	.	32AA-/	.	.	.	.	.	.	.	.	.
.	.	.	.	32F/ 32A-/	.	.	.	.	.	32AAA-/	.	.	.	.	.	.	.	.	.
.	.	.	.	32F/ 32A-/	.	.	.	.	.	32AA-/	.	.	.	.	.	.	.	.	.
4AA-'/)	.	4AA-'/)	.	32F/ 32A-/	.	.	.	4d-/	.	32AAA-/	.	.	.	.	.	.	.	.	.
.	.	.	.	32F/ 32A-/	.	.	.	.	.	32AA-/	.	.	.	.	.	.	.	.	.
.	.	.	.	32F/ 32A-/	.	.	.	.	.	32AAA-/	.	.	.	.	.	.	.	.	.
.	.	.	.	32F/ 32A-/	.	.	.	.	.	32AA-/	.	.	.	.	.	.	.	.	.
.	.	.	.	32F/ 32A-/	.	.	.	.	.	32AAA-/	.	.	.	.	.	.	.	.	.
.	.	.	.	32F/ 32A-/	.	.	.	.	.	32AA-/	.	.	.	.	.	.	.	.	.
.	.	.	.	32F/ 32A-/	.	.	.	.	.	32AAA-/	.	.	.	.	.	.	.	.	.
.	.	.	.	32F/JJJ 32A-/	.	.	.	.	.	32AA-/JJJ	.	.	.	.	.	.	.	.	.
*	*	*	*	*Xtremolo	*	*	*	*	*	*Xtremolo	*	*	*	*	*	*	*	*	*
*	*	*	*	*	*	*	*	*	*	*Xrep	*	*	*	*	*	*	*	*	*
!!LO:PB:g=original
=72	=72	=72	=72	=72	=72	=72	=72	=72	=72	=72	=72	=72	=72	=72	=72	=72	=72	=72	=72
!	!	!	!	!	!	!	!	!	!	!LO:TX:t=P:problem=t. 72-84 ukryte jako powtórzenie prawej ręki o 8 niżej	!	!	!	!	!LO:TX:t=P:problem=brak zakończenia ligatury	!	!	!LO:S:s=2:note:problem=note-level slur	!
[>1.AA-/	.	[>1.AA-/	.	(4F/	.	2b-\	.	(4d-/	.	(2.FF/ 2.AA-/	(2.F\ 2.A-\	.	.	1.r	1.b-\_	.	1.AA-/_	(>2.F\ (>2.A-\	.
.	.	.	.	4A-/	.	.	.	4c/	.	.	.	.	.	.	.	.	.	.	.
.	.	.	.	4F/)	.	4b-\	.	4d-/)	.	.	.	.	.	.	.	.	.	.	.
.	.	.	.	2G-/	.	2b-\	.	(2e-^/	.	2.EE-/) 2.GG-/	2.E-\) 2.G-\	.	.	.	.	.	.	[>2.E-\) [2.G-\)	.
.	.	.	.	4G-/	.	4b-\	.	4B-/)	.	.	.	.	.	.	.	.	.	.	.
=73	=73	=73	=73	=73	=73	=73	=73	=73	=73	=73	=73	=73	=73	=73	=73	=73	=73	=73	=73
2AA-/]	.	2AA-/]	.	[2.G-^/	.	(2.b-^\	.	(2.d-^/	.	1.EE-/^ 1.GG-/	1.E-\^ 1.G-\	.	.	1.r	(2.b-\]	.	1.AA-/_	1.E-\] 1.G-\]	.
4AA-/	.	4AA-/	.	.	.	.	.	.	.	.	.	.	.	.	.	.	.	.	.
2AA-/	.	2AA-/	.	4G-/]	.	2.a-\)	.	2.c/)	.	.	.	.	.	.	2a-\)	.	.	.	.
.	.	.	.	4E-/	.	.	.	.	.	.	.	.	.	.	.	.	.	.	.
4AA-/	.	4AA-/	.	4A-/	.	.	.	.	.	.	.	.	.	.	4r	.	.	.	.
=74	=74	=74	=74	=74	=74	=74	=74	=74	=74	=74	=74	=74	=74	=74	=74	=74	=74	=74	=74
[>1.AA-/	.	[1.AA-/	.	1.F/	.	[2.a-\	.	(2.d-^/	.	1.DD-/ 1.FF/	1.D-\ 1.F\	.	.	1.r	1.r	.	1.AA-/_	[>1.D-\ [1.F\	.
.	.	.	.	.	.	(4a-\]	.	2c/	.	.	.	.	.	.	.	.	.	.	.
.	.	.	.	.	.	4cc\	.	.	.	.	.	.	.	.	.	.	.	.	.
.	.	.	.	.	.	4dd-\)	.	4B-/)	.	.	.	.	.	.	.	.	.	.	.
=75	=75	=75	=75	=75	=75	=75	=75	=75	=75	=75	=75	=75	=75	=75	=75	=75	=75	=75	=75
2AA-/]	.	2AA-/]	.	1.d-\	.	([2.ff\	.	[>1.A-/	.	1.DD-/ 1.FF/	1.D-\ 1.F\	.	.	4r	4r	.	1.AA-/_	1.D-\] 1.F\]	.
.	.	.	.	.	.	.	.	.	.	.	.	.	.	4r	4r	.	.	.	.
4AA-/	.	4AA-/	.	.	.	.	.	.	.	.	.	.	.	(4f/	(>4a-/ 4dd-/	.	.	.	.
2AA-/	.	2AA-/	.	.	.	4ff\]	.	.	.	.	.	.	.	2d-/	2f/ 2a-/	.	.	.	.
.	.	.	.	.	.	4ee-\)	.	.	.	.	.	.	.	.	.	.	.	.	.
4AA-/	.	4AA-/	.	.	.	4dd-\	.	.	.	.	.	.	.	4A-/)	4d-/ 4f/	.	.	.	.
=76	=76	=76	=76	=76	=76	=76	=76	=76	=76	=76	=76	=76	=76	=76	=76	=76	=76	=76	=76
!	!	!	!	!	!	!	!	!	!	!	!	!	!	!	!	!	!	!LO:S:s=2:note:problem=note-level slur	!
1.AA-/	.	1.AA-/	.	[2.e-\	.	(2cc^\	.	4A-/]	.	2EE-/ 2GG-/	2E-\ 2G-\	.	.	2c/	2e-/) 2g-/	.	1.AA-/_	(>2.E-\ (>2.G-\	.
.	.	.	.	.	.	.	.	(>4Gn/	.	.	.	.	.	.	.	.	.	.	.
.	.	.	.	.	.	4b-\	.	4A-/	.	4DD-/ 4FF/	4D-\ 4F\	.	.	4c/	4e-/ 4g-/	.	.	.	.
.	.	.	.	2e-\]	.	2a-/	.	4c^/	.	2CC/ 2EE-/	2C\ 2E-\	.	.	(4c/	2e-/ 2g-/	.	.	(<2C\) [2E-\)	.
.	.	.	.	.	.	.	.	4B-/	.	.	.	.	.	4B-/	.	.	.	.	.
.	.	.	.	4E-/	.	4c/)	.	4A-/)	.	4CC/ 4EE-/	4C\ 4E-\	.	.	4A-/)	4e-/ 4g-/	.	.	4E-\]) 4c\	.
!!LO:PB:g=original
=77	=77	=77	=77	=77	=77	=77	=77	=77	=77	=77	=77	=77	=77	=77	=77	=77	=77	=77	=77
2AA-/	.	1.A-\	.	2.F/	.	2.d-/	.	1.a-/	.	2.DD-/ 2.FF/	2.D-\ 2.F\	.	.	[2.A-/	2d-/ 2f/	.	1.AA-/_	2.F\ [>2.A-\ (>2.d-\	.
4AA-'/	.	.	.	.	.	.	.	.	.	.	.	.	.	.	(4d-/ 4f/	.	.	.	.
2AA-/	.	.	.	2.En/	.	2.c/	.	.	.	2.ryy	2.ryy	.	.	2A-/]	2c/) 2e-/	.	.	2.En\ 2.A-\] 2.c\)	.
4AA-'/	.	.	.	.	.	.	.	.	.	.	.	.	.	4A-/	4a-/	.	.	.	.
=78	=78	=78	=78	=78	=78	=78	=78	=78	=78	=78	=78	=78	=78	=78	=78	=78	=78	=78	=78
*	*	*	*	*	*	*	*	*	*	*	*	*	*	*	*	*	*	*^	*
!	!	!	!	!LO:TX:a:i:t=(x)	!	!	!	!	!	!	!	!	!	!	!	!	!	!	!	!
[1.AA-/	.	2.A-\	.	[>1.E-/	.	(2.c-X/	.	1.a-/	.	1.ryy	1.ryy	.	.	2.A-/	2.a-/	.	1.AA-/_	[2.c-X/	1.E-\ 1.A-\	.
.	.	(4c-X\	.	.	.	2e-/	.	.	.	.	.	.	.	([2.a-/	([2.aa-\	.	.	(<4c-/]	.	.
.	.	4B-\	.	.	.	.	.	.	.	.	.	.	.	.	.	.	.	4B-/)	.	.
.	.	4A-\)	.	.	.	4c-/)	.	.	.	.	.	.	.	.	.	.	.	4c-/	.	.
*	*	*	*	*	*	*	*	*	*	*	*	*	*	*	*	*	*	*v	*v	*
=79	=79	=79	=79	=79	=79	=79	=79	=79	=79	=79	=79	=79	=79	=79	=79	=79	=79	=79	=79
!	!	!	!	!LO:TX:a:i:t=viola\n(x)	!	!	!	!	!	!	!	!	!	!	!	!	!	!	!
2AA-/]	.	([2.f^<\	.	4E-/]	.	(>1.c-X/^>	.	(2a-^/	.	2EE-/	2E-\	.	.	2a-/]	2aa-\]	.	1.AA-/_	1.E-\ 1.A-\ 1.c-X\	.
.	.	.	.	4r	.	.	.	.	.	.	.	.	.	.	.	.	.	.	.
4AA-'/	.	.	.	4E-|/	.	.	.	4cc-X\	.	4EE-/	4E-\	.	.	4cc-X\	4ccc-X\	.	.	.	.
2AA-/	.	2f\]	.	2E-^/	.	.	.	4ee-\	.	(2EE-/	(2E-\	.	.	4ee-\	4eee-\	.	.	.	.
.	.	.	.	.	.	.	.	4dd-\	.	.	.	.	.	4dd-\	4ddd-\	.	.	.	.
4AA-'/	.	4e-\)	.	4G-/	.	.	.	4cc-\)	.	4GG-/	4G-\	.	.	4cc-\)	4ccc-\)	.	.	.	.
=80	=80	=80	=80	=80	=80	=80	=80	=80	=80	=80	=80	=80	=80	=80	=80	=80	=80	=80	=80
[1.AA-/	.	(2e-^\	.	2.F/	.	1.B-/)	.	(2.cc-X^\	.	2FF/)	2F\)	.	.	(2.cc-X\	(2.ccc-X\	.	1.AA-/_	1.F\ [1.B-\	.
.	.	4dn\)	.	.	.	.	.	.	.	4BBB-/	4BB-/	.	.	.	.	.	.	.	.
.	.	(4d\	.	(2B-^/	.	.	.	2.b-\)	.	(2BB-^/	(2B-^\	.	.	2.b-\)	2.bb-\)	.	.	.	.
.	.	4c\	.	.	.	.	.	.	.	.	.	.	.	.	.	.	.	.	.
.	.	4d\)	.	4A-/)	.	.	.	.	.	4AA-/)	4A-\)	.	.	.	.	.	.	.	.
=81	=81	=81	=81	=81	=81	=81	=81	=81	=81	=81	=81	=81	=81	=81	=81	=81	=81	=81	=81
!	!	!	!	!	!	!	!	!	!LO:HP:a	!	!	!	!	!	!	!	!	!	!
2AA-/]	.	1.B-\	.	([2.A-^/	.	2.e-/	.	4b-\	<	([2.AA-/	([2.A-\	.	.	(4b-\	(4bb-\	<	1.AA-/_	[1.E-\ 1.B-\_	.
.	.	.	.	.	.	.	.	4ccn\	.	.	.	.	.	4ccn\	4cccn\	.	.	.	.
4AA-'/	.	.	.	.	.	.	.	4ddn\	.	.	.	.	.	4ddn\	4dddn\	.	.	.	.
2AA-/	.	.	.	4A-/]	.	2.b-/	.	2ee-\	.	4AA-/]	4A-\]	.	.	2ee-\	2eee-\	.	.	.	.
.	.	.	.	4G-/	.	.	.	.	[	4GG-/	4G-\	.	.	.	.	.	.	.	.
4AA-'/	.	.	.	4F/	.	.	.	4ff\	.	4FF/)	4F\)	.	.	4ff\	4fff\	[[	.	.	.
=82	=82	=82	=82	=82	=82	=82	=82	=82	=82	=82	=82	=82	=82	=82	=82	=82	=82	=82	=82
*	*	*	*	*	*	*	*	*	*	*	*	*	*	*	*	*	*	*^	*
!	!	!	!	!	!	!	!	!LO:TX:t=P:problem=brak początku łuku	!	!	!	!	!	!	!	!	!	!	!	!
1.AA-/	.	4B-\	<	4E-/)	.	2.b-/	.	([>1.gg-\	.	4EE-/	4E-\	.	.	4gg-\)	4ggg-\)	.	1.AA-/_	1.B-/]	2.E-\]	.
.	.	4cn\	.	4r	.	.	.	.	.	4r	4r	.	.	4r	4r	.	.	.	.	.
.	.	4dn\	.	4B-'/	.	.	.	.	.	4BBB-/	4BB-/	.	.	4b-\	4bb-\	.	.	.	.	.
.	.	2e-\	.	2G-/	.	2e-/	.	.	.	(2GG-^/	(2G-^\	.	.	([<2.gg-^\	([<2.ggg-^\	.	.	.	(>2G-\	.
.	.	4f\	[	4F/	.	4B-/	.	.	.	4FF/)	4F\)	.	.	.	.	.	.	.	4F\)	.
!!LO:PB:g=original
=83	=83	=83	=83	=83	=83	=83	=83	=83	=83	=83	=83	=83	=83	=83	=83	=83	=83	=83	=83	=83
*	*	*	*	*	*	*	*	*	*	*rep	*	*	*	*	*	*	*	*	*	*
!	!	!	!	!LO:TX:a:i:t=viola	!	!	!	!	!	!	!	!	!	!	!	!	!	!	!	!
2AA-/	.	[2.g-\	.	(4E-/	.	(2b-/	.	4gg-\]	.	4EE-/	4E-\	.	.	4gg-\]	4ggg-\]	.	1.AA-/_	[2.B-/	1.E-\	.
.	.	.	.	4F/	.	.	.	4ff\	.	4FF/	4F\	.	.	4ff\	4fff\	.	.	.	.	.
4AA-/	.	.	.	4G-/	.	4e-/)	.	4ee-\	.	4GG-/	4G-\	.	.	4ee-\	4eee-\	.	.	.	.	.
2AA-/	.	2g-\]	.	2A-/	.	2e-/	.	4dd-\	.	2AA-/	2A-\	.	.	4dd-\	4ddd-\	.	.	2B-/]	.	.
.	.	.	.	.	.	.	.	4cc\)	.	.	.	.	.	4cc\	4ccc\	.	.	.	.	.
4AA-/	.	4c\	.	4G-/)	.	4g-/	.	4b-\	.	4GG-/	4G-\	.	.	4b-\	4bb-\)	.	.	4c/	.	.
*	*	*	*	*	*	*	*	*	*	*Xrep	*	*	*	*	*	*	*	*	*	*
=84	=84	=84	=84	=84	=84	=84	=84	=84	=84	=84	=84	=84	=84	=84	=84	=84	=84	=84	=84	=84
*	*	*	*	*	*	*	*	*	*	*rep	*	*	*	*	*	*	*	*	*	*
1.AA-/	.	(2e-^\	.	(2G-^/	.	2f/	.	4a-/	.	2GG-/	2G-\	.	.	4a-/)	4aa-\	.	1.AA-/_	2.A-/	1.F\	.
.	.	.	.	.	.	.	.	4r	.	.	.	.	.	4r	4r	.	.	.	.	.
.	.	4d-\	.	4F/	.	(4ff\	.	4d-/	.	4FF/	4F\	.	.	4d-/	4dd-'\	.	.	.	.	.
.	.	2A-\	.	2D-/)	.	2dd-\	.	([2.f^/	.	2DD-/	2D-\	.	.	([2.d-^/ [<2.f/	([>2.dd-^\ [2.ff\	.	.	2.d-/	.	.
.	.	4F\	.	4D-/	.	4a-/)	.	.	.	4DD-/	[4D-\	.	.	.	.	.	.	.	.	.
*	*	*	*	*	*	*	*	*	*	*Xrep	*	*	*	*	*	*	*	*	*	*
=85	=85	=85	=85	=85	=85	=85	=85	=85	=85	=85	=85	=85	=85	=85	=85	=85	=85	=85	=85	=85
*	*	*	*	*	*	*	*	*	*	*tremolo	*	*	*	*	*	*	*	*	*	*
!	!	!LO:N:vis=2.	!	!	!	!	!	!	!	!	!	!	!	!	!	!	!	!	!	!
2AA-/	.	2A-\)	.	2D-/	.	2.d-/	.	4f/]	.	32AAA-/LLL	2D-\]	.	.	4d-/] 4f/]	4dd-\] 4ff\]	.	2.AA-/_>	2.A-/ 2.d-/	2.F\	.
.	.	.	.	.	.	.	.	.	.	32AA-/	.	.	.	.	.	.	.	.	.	.
.	.	.	.	.	.	.	.	.	.	32AAA-/	.	.	.	.	.	.	.	.	.	.
.	.	.	.	.	.	.	.	.	.	32AA-/	.	.	.	.	.	.	.	.	.	.
.	.	.	.	.	.	.	.	.	.	32AAA-/	.	.	.	.	.	.	.	.	.	.
.	.	.	.	.	.	.	.	.	.	32AA-/	.	.	.	.	.	.	.	.	.	.
.	.	.	.	.	.	.	.	.	.	32AAA-/	.	.	.	.	.	.	.	.	.	.
.	.	.	.	.	.	.	.	.	.	32AA-/	.	.	.	.	.	.	.	.	.	.
.	.	.	.	.	.	.	.	4g-/	.	32AAA-/	.	.	.	4g-/	4gg-\	.	.	.	.	.
.	.	.	.	.	.	.	.	.	.	32AA-/	.	.	.	.	.	.	.	.	.	.
.	.	.	.	.	.	.	.	.	.	32AAA-/	.	.	.	.	.	.	.	.	.	.
.	.	.	.	.	.	.	.	.	.	32AA-/	.	.	.	.	.	.	.	.	.	.
.	.	.	.	.	.	.	.	.	.	32AAA-/	.	.	.	.	.	.	.	.	.	.
.	.	.	.	.	.	.	.	.	.	32AA-/	.	.	.	.	.	.	.	.	.	.
.	.	.	.	.	.	.	.	.	.	32AAA-/	.	.	.	.	.	.	.	.	.	.
.	.	.	.	.	.	.	.	.	.	32AA-/	.	.	.	.	.	.	.	.	.	.
4A-\	.	4D-/	.	4D-/	.	.	.	4f/	.	32AAA-/	4D-\	.	.	4f/	4ff\	.	.	.	.	.
.	.	.	.	.	.	.	.	.	.	32AA-/	.	.	.	.	.	.	.	.	.	.
.	.	.	.	.	.	.	.	.	.	32AAA-/	.	.	.	.	.	.	.	.	.	.
.	.	.	.	.	.	.	.	.	.	32AA-/	.	.	.	.	.	.	.	.	.	.
.	.	.	.	.	.	.	.	.	.	32AAA-/	.	.	.	.	.	.	.	.	.	.
.	.	.	.	.	.	.	.	.	.	32AA-/	.	.	.	.	.	.	.	.	.	.
.	.	.	.	.	.	.	.	.	.	32AAA-/	.	.	.	.	.	.	.	.	.	.
.	.	.	.	.	.	.	.	.	.	32AA-/JJJ	.	.	.	.	.	.	.	.	.	.
2G-\	.	4.C/	.	(4C/	.	2.c/	.	2e-/	.	32GG-/LLL	4.C/	.	.	2e-/	2ee-\	.	2.GG-/ 2.AA-/_	2.A-\	2.E-\	.
.	.	.	.	.	.	.	.	.	.	32AA-/	.	.	.	.	.	.	.	.	.	.
.	.	.	.	.	.	.	.	.	.	32GG-/	.	.	.	.	.	.	.	.	.	.
.	.	.	.	.	.	.	.	.	.	32AA-/	.	.	.	.	.	.	.	.	.	.
.	.	.	.	.	.	.	.	.	.	32GG-/	.	.	.	.	.	.	.	.	.	.
.	.	.	.	.	.	.	.	.	.	32AA-/	.	.	.	.	.	.	.	.	.	.
.	.	.	.	.	.	.	.	.	.	32GG-/	.	.	.	.	.	.	.	.	.	.
.	.	.	.	.	.	.	.	.	.	32AA-/	.	.	.	.	.	.	.	.	.	.
.	.	.	.	4E-/	.	.	.	.	.	32GG-/	.	.	.	.	.	.	.	.	.	.
.	.	.	.	.	.	.	.	.	.	32AA-/	.	.	.	.	.	.	.	.	.	.
.	.	.	.	.	.	.	.	.	.	32GG-/	.	.	.	.	.	.	.	.	.	.
.	.	.	.	.	.	.	.	.	.	32AA-/	.	.	.	.	.	.	.	.	.	.
.	.	8BB-/	.	.	.	.	.	.	.	32GG-/	8BB-/	.	.	.	.	.	.	.	.	.
.	.	.	.	.	.	.	.	.	.	32AA-/	.	.	.	.	.	.	.	.	.	.
.	.	.	.	.	.	.	.	.	.	32GG-/	.	.	.	.	.	.	.	.	.	.
.	.	.	.	.	.	.	.	.	.	32AA-/	.	.	.	.	.	.	.	.	.	.
4G-\	.	4AA-/	.	4A-/)	.	.	.	4a-/)	.	32GG-/	4AA-/	.	.	4a-/)	4aa-\)	.	.	.	.	.
.	.	.	.	.	.	.	.	.	.	32AA-/	.	.	.	.	.	.	.	.	.	.
.	.	.	.	.	.	.	.	.	.	32GG-/	.	.	.	.	.	.	.	.	.	.
.	.	.	.	.	.	.	.	.	.	32AA-/	.	.	.	.	.	.	.	.	.	.
.	.	.	.	.	.	.	.	.	.	32GG-/	.	.	.	.	.	.	.	.	.	.
.	.	.	.	.	.	.	.	.	.	32AA-/	.	.	.	.	.	.	.	.	.	.
.	.	.	.	.	.	.	.	.	.	32GG-/	.	.	.	.	.	.	.	.	.	.
.	.	.	.	.	.	.	.	.	.	[>32AA-/JJJ	.	.	.	.	.	.	.	.	.	.
*	*	*	*	*	*	*	*	*	*	*Xtremolo	*	*	*	*	*	*	*	*	*	*
*	*	*	*	*	*	*	*	*	*	*	*	*	*	*	*	*	*	*v	*v	*
=86	=86	=86	=86	=86	=86	=86	=86	=86	=86	=86	=86	=86	=86	=86	=86	=86	=86	=86	=86
[2.F\	.	4FF/	.	[1.A-/	.	([2.d-/	.	2a-/	.	4AAA-/ 4AA-/]	2ryy	.	.	[2.d-/ [<2.a-/	[2.dd-\ [2.aa-\	.	[>1.FF/ 1.AA-/_	[1.D-\ [1.A-\ [1.d-\	.
.	.	4r	.	.	.	.	.	.	.	4r	.	.	.	.	.	.	.	.	.
.	.	(4A-\	.	.	.	.	.	(4d-/	.	(4DD-/	(<4D-/	.	.	.	.	.	.	.	.
2F\]	.	[2.d-\)	.	.	.	2d-/]	.	[2.a-/)	.	2FFF/	2FF/	.	.	2d-/] 2a-/]	2dd-\] 2aa-\]	.	.	.	.
(4d-\	.	.	.	.	.	4A-/	.	.	.	4DD-/	4D-\	.	.	4A-/ 4d-/	4a-\ 4dd-\	.	.	.	.
=87	=87	=87	=87	=87	=87	=87	=87	=87	=87	=87	=87	=87	=87	=87	=87	=87	=87	=87	=87
*	*	*	*	*	*	*	*	*	*	*	*	*	*	*	*	*	*rep	*rep	*
[2.F\)	.	2.d-\_	.	2.A-/_	.	2d-/	.	2a-/]	.	2FFF/	2FF/	.	.	[2.d-/ [<2.a-/	[2.dd-\ [2.aa-\	.	1.FF/] 1.AA-/]	1.D-\] 1.A-\] 1.d-\]	.
.	.	.	.	.	.	4A-/	.	4d-/	.	4DD-/	4D-/	.	.	.	.	.	.	.	.
2F\]	.	2d-\]	.	2A-/]	.	2d-/)	.	4a-/	.	2FFF/	2FF/	.	.	2d-/] 2a-/]	2dd-\] 2aa-\]	.	.	.	.
.	.	.	.	.	.	.	.	4ryy	.	.	.	.	.	.	.	.	.	.	.
!	!	!	!	!LO:TX:b:t=dolciſsimo.	!	!	!	!LO:TX:b:i:t=dolciſsimo.	!	!	!	!	!	!	!	!	!	!	!
(4c#X\	.	4c#X\	.	4a-\	.	[4d-/	.	4aa-\	.	4DD-/)	(4D-/)	.	.	4a-/	4aa-\	.	.	.	.
*	*	*	*	*	*	*	*	*	*	*	*	*	*	*	*	*	*Xrep	*Xrep	*
=88	=88	=88	=88	=88	=88	=88	=88	=88	=88	=88	=88	=88	=88	=88	=88	=88	=88	=88	=88
*	*	*	*	*	*	*	*	*	*	*8	*	*	*	*	*	*	*	*	*
!	!	!	!	!	!	!	!	!	!	!LO:TX:a:i:t=(xx)	!	!	!	!	!	!	!	!	!
!	!	!	!	!	!	!	!	!	!	!LO:TX:a:i:t=(xx)	!	!	!	!	!	!	!	!	!
[2.En\)	.	1.An\	.	([2.an\	.	1.c#X/]	.	([2.aan\	.	1.EEEn/ 1.EEn/	2EEn/	.	.	[2.an/	[2.aan\	.	[1.EEn/	1.En\ 1.An\ 1.c#X\	.
.	.	.	.	.	.	.	.	.	.	.	4C#X/	.	.	.	.	.	.	.	.
2E\]	.	.	.	4a\]	.	.	.	4aa\]	.	.	2EE/	.	.	4a/]	4aa\]	.	.	.	.
.	.	.	.	4g#X\	.	.	.	4gg#X\	.	.	.	.	.	4g#X/	4gg#X\	.	.	.	.
(4c\	.	.	.	4f#X\	.	.	.	4ff#X\	.	.	4C#/	.	.	4f#X/	4ff#X\	.	.	.	.
=89	=89	=89	=89	=89	=89	=89	=89	=89	=89	=89	=89	=89	=89	=89	=89	=89	=89	=89	=89
[2.En\)	.	1.Bn\	.	[2.en\	.	[2.G#X/	.	[2.een\	.	1.EEEn/ 1.EEn/	2EEn/	.	.	[>2.en/	[2.een\	.	1.EE/]	1.En\ 1.G#X\ 1.Bn\	.
.	.	.	.	.	.	.	.	.	.	.	4BB/	.	.	.	.	.	.	.	.
2E\]	.	.	.	4e\]	.	2G#/]	.	4ee\]	.	.	2EE/	.	.	4e/]	4ee\]	.	.	.	.
.	.	.	.	4d#X\	.	.	.	4dd#X\	.	.	.	.	.	4d#X/	4dd#X\	.	.	.	.
(4Bn\	.	.	.	4c#X\)	.	4en/	.	4cc#X\	.	.	4BB/	.	.	4c#X/	4cc#X\	.	.	.	.
!!LO:PB:g=original
=90	=90	=90	=90	=90	=90	=90	=90	=90	=90	=90	=90	=90	=90	=90	=90	=90	=90	=90	=90
!	!	!	!	!LO:TX:a:i:t=(x)	!	!	!	!	!	!	!	!	!	!	!	!	!	!	!
!LO:TX:t=P:problem=brak zakończenia łuku	!	!LO:TX:a:i:t=Vcello	!	!LO:TX:a:i:t=(x) viola	!	!	!	!	!	!	!	!	!	!	!	!	!	!	!
1.D#X\)	.	2.Bn\	.	1.Bn/	.	(1.f#X/	.	[2.bn/	.	[2.DDD#/ [2.DD#/	2DD#X/)	.	.	[2.Bn/	(>[2.bn/	.	1.DD#X/ 1.D#X/	[1.F#X\ 1.Bn\	.
.	.	.	.	.	.	.	.	.	.	.	4BBn/	.	.	.	.	.	.	.	.
.	.	2.D#X\	.	.	.	.	.	4b/]	.	2DDD#/] 2.DD#/]	2DD#/	.	.	4B/]	4b/]	.	.	.	.
.	.	.	.	.	.	.	.	4a#X/	.	.	.	.	.	4A#X/	4a#X/	.	.	.	.
!	!	!	!	!	!	!	!	!	!	!	!LO:SIC:v:s=4D#/	!	!	!	!	!	!	!	!
!	!	!	!	!	!	!	!	!	!	!	!LO:TX:b:t=(xx)	!	!	!	!	!	!	!	!
.	.	.	.	.	.	.	.	4an/	.	4DD#/	4Dny/	.	.	4An/	4an/)	.	.	.	.
=91	=91	=91	=91	=91	=91	=91	=91	=91	=91	=91	=91	=91	=91	=91	=91	=91	=91	=91	=91
!	!	!	!	!	!	!	!	!	!	!	!LO:TX:b:t=(xx)	!	!	!	!	!	!	!	!
(2Dn\	.	(2Dn\	.	1.cn\	.	1.g-X/)	.	4a-X/)	.	(2DDn/	(2Dn\	.	.	4A-X/	4a-X/	.	(2DDn/ 2Dn/	1.G-X\] 1.cn\	.
.	.	.	.	.	.	.	.	4r	.	.	.	.	.	4r	4r	.	.	.	.
4E-\	.	4E-X\	.	.	.	.	.	4a-/	.	4EE-X/	4E-X\	.	.	4A-/	4a-/	.	4EE-X/ 4E-X/	.	.
.	.	.	.	.	.	.	.	8qcc-X/	.	.	.	.	.	.	.	.	.	.	.
2AA-/)	.	2AA-X/)	.	.	.	.	.	(2b--/	.	2AAA-X/)	2AA-X/	.	.	(2B--/	(2g-/ 2b--/	.	2.AA-X/)	.	.
4A-\	.	4A-\	.	.	.	.	.	4a-/)	.	4AA-/	4A-\)	.	.	4A-/)	(4a-/)	.	.	.	.
=92	=92	=92	=92	=92	=92	=92	=92	=92	=92	=92	=92	=92	=92	=92	=92	=92	=92	=92	=92
*	*	*	*	*	*	*	*	*	*	*	*	*	*	*	*	*	*	*^	*
*	*	*	*	*	*	*	*	*	*	*	*ped	*	*	*	*ped	*	*	*	*	*
1.D-\	.	4d-\	.	2.d-\	.	[2.f/	.	[2.ff\	.	[1.DD-/	(2D-/	.	.	[>2.A-/ [>2.d-/ [2.f/	[>2.a-\ [2.dd-\ [2.ff\	.	[>1.DD-/ [1.AA-/	2.d-/	1.F\	.
.	.	4r	.	.	.	.	.	.	.	.	.	.	.	.	.	.	.	.	.	.
!	!	!	!	!	!	!	!	!	!	!	!LO:TX:b:t=u. c.	!	!	!	!LO:TX:b:t=u. c.	!	!	!	!	!
.	.	4AA-/	.	.	.	.	.	.	.	.	4AA-/	.	.	.	.	.	.	.	.	.
.	.	(2C/	.	2.A-/	.	2f/]	.	2ff\]	.	.	2C/	.	.	2A-/] 2d-/] 2f/]	2a-\]) 2dd-\] 2ff\]	.	.	2.c/	.	.
.	.	4AA-/	.	.	.	4a-/	.	4a-\	.	.	4AA-/	.	.	4A-/	(4f/ 4a-/	.	.	.	.	.
*	*	*	*	*	*	*	*	*	*	*	*	*	*	*	*	*	*	*v	*v	*
=93	=93	=93	=93	=93	=93	=93	=93	=93	=93	=93	=93	=93	=93	=93	=93	=93	=93	=93	=93
[1.D-\	.	2C-X/	.	1.A-/	.	[2.f/	.	[2.dd-\	.	1.DD-/]	2BBn/	.	.	[2.A-/ [2.d-/	[2.f\ [2.dd-\ [2.ff\	.	1.DD-/_ 1.AA-/]	2.Bn/	.
.	.	4AA-/	.	.	.	.	.	.	.	.	4AA-/	.	.	.	.	.	.	.	.
*	*	*	*	*	*	*	*	*	*	*	*Xped	*	*	*	*	*	*	*	*
.	.	2Cn/	.	.	.	2f/]	.	2dd-\]	.	.	2C/	.	.	2A-/] 2d-/]	2f\] 2dd-\] 2ff\])	.	.	2.c/	.
*	*	*	*	*	*	*	*	*	*	*	*	*	*	*	*Xped	*	*	*	*
.	.	4AA-/	.	.	.	4d-/	.	4f/	.	.	4AA-/)	.	.	4A-/	4f/ 4a-/	.	.	.	.
=94	=94	=94	=94	=94	=94	=94	=94	=94	=94	=94	=94	=94	=94	=94	=94	=94	=94	=94	=94
*	*	*	*	*	*	*	*	*	*	*	*	*	*	*rep	*rep	*	*	*	*
*	*	*	*	*	*	*	*	*	*	*	*ped	*	*	*	*ped	*	*	*	*
2.D-/_	.	2D-/)	.	(2.d-\	.	(2.f/	.	(2.a-/	.	[2.DD-/	2D-/	.	.	[2.A-/ [2.d-/	[2.f\ [2.dd-\ [2.ff\	.	(2.DD-/] 2.AA-/	(2.F\ 2.d-\	.
.	.	4AA-/	.	.	.	.	.	.	.	.	4AA-/	.	.	.	.	.	.	.	.
*	*	*	*	*	*	*	*	*	*	*	*	*	*	*	*	*	*	*clefG2	*
2D-/]	.	2D-/	.	2.A-/	.	2.d-/	.	2.f/	.	2DD-/]	2D-/	.	.	2A-/] 2d-/]	2f\] 2dd-\] 2ff\]	.	2.AA-/ 2.D-/	2.A-/ 2.f/	.
4AA-/	.	4AA-/	.	.	.	.	.	.	.	4AAA-/	4AA-/	.	.	4A-/	4f/ 4a-/	.	.	.	.
*	*	*	*	*	*	*	*	*	*	*	*	*	*	*Xrep	*Xrep	*	*	*	*
=95	=95	=95	=95	=95	=95	=95	=95	=95	=95	=95	=95	=95	=95	=95	=95	=95	=95	=95	=95
[2.D-/	.	2D-/	.	2.F/)	.	2.A-/)	.	2.d-/	.	[2.DD-/	2D-/	.	.	2A-/ 2d-/	2f\ 2dd-\ 2ff\	.	2.AA-/ 2.F/	2.d-/ 2.a-/	.
.	.	4AA-/	.	.	.	.	.	.	.	.	4AA-/	.	.	4A-/ 4d-/	4f\ 4dd-\ 4ff\	.	.	.	.
*	*	*	*	*	*	*	*	*	*	*	*	*	*	*rep	*rep	*	*	*	*
!	!	!	!	!LO:N:vis=2	!	!	!	!	!	!	!	!	!	!	!	!	!	!	!
2D-/]	.	2D-/	.	2.F/	.	2.A-/	.	2.A-/)	.	2DD-/]	2D-/	.	.	2A-/ 2d-/	2f\ 2dd-\ 2ff\	.	2.D-\) 2.A-\	2.f/) 2.dd-/	.
4AA-/	.	4AA-/	.	.	.	.	.	.	.	4AAA-/	4AA-/	.	.	4A-/ 4d-/	4f\ 4dd-\ 4ff\	.	.	.	.
*	*	*	*	*	*	*	*	*	*	*	*	*	*	*Xrep	*Xrep	*	*	*	*
!!LO:PB:g=original
=96	=96	=96	=96	=96	=96	=96	=96	=96	=96	=96	=96	=96	=96	=96	=96	=96	=96	=96	=96
1.D-\;	.	1.D-\;	.	1.F/;	.	1.A-/;	.	1.d-/;	.	1.DDD-/; 1.DD-/	1.D-\;	.	.	1.A-/; 1.d-/ 1.f/	1.a-\; 1.dd-\ 1.ff\	.	1.D-\; 1.F\ 1.A-\ 1.d-\	1.f\; 1.dd-\ 1.ff\	.
==	==	==	==	==	==	==	==	==	==	==	==	==	==	==	==	==	==	==	==
*-	*-	*-	*-	*-	*-	*-	*-	*-	*-	*-	*-	*-	*-	*-	*-	*-	*-	*-	*-
!!!system-decoration: s1,s2,{[s3,s4][s5,s6]},s7,s8,s9,s10,s11
!!!RDF**dynam: > = dimin
!!!RDF**kern: > = above
!!!RDF**kern: < = below
!!!RDF**kern: | = vertical stroke
!!!EED: Andrzej Borzym
!!!EEV: 2021-08-22
!!!ENC: Marcin Jachim
!!!END: 2021-08-08
!!!YEC: Copyright 2022 Narodowy Instytut Fryderyka Chopina (https://polishscores.org)
!!!YEM: License CC-BY-4.0 (https://creativecommons.org/licenses/by/4.0)
